(Projekt bottom2)
(Erstellt mit Estlcam Version 10 Build 10,044)
(Laufzeit ca. 00:00:58 Stunden)

(Benoetigte Werkzeuge:)
(Fraeser Diamantverzahnt 2mm)

G17 (XY-Ebene)
G54 (lokales KOS)
G21            
G90 (Absolutmodus, nicht inkrementell)
M03 S24000
M00 (Warte bis Drehzahl erreicht)
G00 Z5.0000


(Nr. 1: Ausschnitt 9)


(Nr. 2: Ausschnitt 9)
G00 X2.5373 Y2.4789 Z5.0000
G00 Z0.5000
G01 Z-2.0000 F600 S24000
G02 X2.4789 Y3.4627 I0.4627 J0.5211 F1500
G02 X3.4627 Y3.5211 I0.5211 J-0.4627
G02 X3.5211 Y2.5373 I-0.4627 J-0.5211
G02 X2.5373 Y2.4789 I-0.5211 J0.4627
G01 Z-3.0000 F600
G02 X2.4789 Y3.4627 I0.4627 J0.5211 F1500
G02 X3.4627 Y3.5211 I0.5211 J-0.4627
G02 X3.5211 Y2.5373 I-0.4627 J-0.5211
G02 X2.5373 Y2.4789 I-0.5211 J0.4627
G00 Z5.0000


(Nr. 3: Ausschnitt 10)


(Nr. 4: Ausschnitt 10)
G00 X2.8925 Y21.3115 Z5.0000
G00 Z0.5000
G01 Z-2.0000 F600
G02 X2.3115 Y22.1075 I0.1075 J0.6885 F1500
G02 X3.1075 Y22.6885 I0.6885 J-0.1075
G02 X3.6885 Y21.8925 I-0.1075 J-0.6885
G02 X2.8925 Y21.3115 I-0.6885 J0.1075
G01 Z-3.0000 F600
G02 X2.3115 Y22.1075 I0.1075 J0.6885 F1500
G02 X3.1075 Y22.6885 I0.6885 J-0.1075
G02 X3.6885 Y21.8925 I-0.1075 J-0.6885
G02 X2.8925 Y21.3115 I-0.6885 J0.1075
G00 Z5.0000


(Nr. 5: Ausschnitt 11)
G00 X8.9835 Y25.1850 Z5.0000
G00 Z0.5000
G01 Z-2.0000 F600
G01 X26.0153 F1500
G01 Y26.9850
G01 X28.3000
G01 X6.7000
G01 X9.1796
G01 Y28.7850
G01 X25.8199
G00 Z5.0000
G00 Z0.5000
G01 Z-2.0000 F600
G01 X26.0148 Y28.8288 F1500
G03 X27.0000 Y28.0000 I0.9851 J0.1711
G01 X28.5000
G01 Y25.5000
G01 X27.0200
G03 X26.0000 Y24.5000 I-0.0197 J-1.0001
G01 Y24.4701
G01 X9.0000 Y24.4800
G03 X8.0000 Y25.5000 I-1.0001 J0.0197
G01 X6.5000
G01 Y28.0000
G01 X7.9800
G03 X9.0000 Y29.0000 I0.0197 J1.0001
G01 Y29.5000
G01 X26.0000
G01 Y29.0200
G01 X26.0025 Y28.9293
G01 X26.0146 Y28.8300
G01 X26.0148 Y28.8288
G01 X25.8199 Y28.7850
G00 Z5.0000
G00 X26.0153 Y25.1850
G00 Z-1.5000
G01 Z-4.0000 F600
G01 X8.9835 F1500
G01 Y26.9850
G01 X6.7000
G01 X28.3000
G01 X25.8199
G01 Y28.7850
G01 X9.1796
G00 Z5.0000
G00 Z-1.5000
G01 Z-4.0000 F600
G01 X8.9821 Y28.8149 F1500
G03 X9.0000 Y29.5000 I-3.5366 J0.4351
G01 X26.0000
G01 Y29.0200
G01 X26.0025 Y28.9293
G03 X27.0000 Y28.0000 I0.9975 J0.0707
G01 X28.5000
G01 Y25.5000
G01 X27.0200
G03 X26.0000 Y24.5000 I-0.0197 J-1.0001
G01 Y24.4701
G01 X9.0000 Y24.4800
G03 X8.0000 Y25.5000 I-1.0001 J0.0197
G01 X6.5000
G01 Y28.0000
G01 X7.9800
G03 X8.9821 Y28.8149 I0.0202 J0.9988
G01 X9.1796 Y28.7850
G00 Z5.0000
G00 X8.9835 Y25.1850
G00 Z-3.5000
G01 Z-6.0000 F600
G01 X26.0153 F1500
G01 Y26.9850
G01 X28.3000
G01 X6.7000
G01 X9.1796
G01 Y28.7850
G01 X25.8199
G00 Z5.0000
G00 Z-3.5000
G01 Z-6.0000 F600
G01 X26.0148 Y28.8288 F1500
G03 X27.0000 Y28.0000 I0.9851 J0.1711
G01 X28.5000
G01 Y25.5000
G01 X27.0200
G03 X26.0000 Y24.5000 I-0.0197 J-1.0001
G01 Y24.4701
G01 X9.0000 Y24.4800
G03 X8.0000 Y25.5000 I-1.0001 J0.0197
G01 X6.5000
G01 Y28.0000
G01 X7.9800
G03 X9.0000 Y29.0000 I0.0197 J1.0001
G01 Y29.5000
G01 X26.0000
G01 Y29.0200
G01 X26.0025 Y28.9293
G01 X26.0146 Y28.8300
G01 X26.0148 Y28.8288
G01 X25.8199 Y28.7850
G00 Z5.0000
G00 X26.0153 Y25.1850
G00 Z-5.5000
G01 Z-8.0000 F600
G01 X8.9835 F1500
G01 Y26.9850
G01 X6.7000
G01 X28.3000
G01 X25.8199
G01 Y28.7850
G01 X9.1796
G00 Z5.0000
G00 Z-5.5000
G01 Z-8.0000 F600
G01 X8.9821 Y28.8149 F1500
G03 X9.0000 Y29.5000 I-3.5366 J0.4351
G01 X26.0000
G01 Y29.0200
G01 X26.0025 Y28.9293
G03 X27.0000 Y28.0000 I0.9975 J0.0707
G01 X28.5000
G01 Y25.5000
G01 X27.0200
G03 X26.0000 Y24.5000 I-0.0197 J-1.0001
G01 Y24.4701
G01 X9.0000 Y24.4800
G03 X8.0000 Y25.5000 I-1.0001 J0.0197
G01 X6.5000
G01 Y28.0000
G01 X7.9800
G03 X8.9821 Y28.8149 I0.0202 J0.9988
G01 X9.1796 Y28.7850
G00 Z5.0000
G00 X8.9835 Y25.1850
G00 Z-7.5000
G01 Z-10.0000 F600
G01 X26.0153 F1500
G01 Y26.9850
G01 X28.3000
G01 X6.7000
G01 X9.1796
G01 Y28.7850
G01 X25.8199
G00 Z5.0000
G00 Z-7.5000
G01 Z-10.0000 F600
G01 X26.0148 Y28.8288 F1500
G03 X27.0000 Y28.0000 I0.9851 J0.1711
G01 X28.5000
G01 Y25.5000
G01 X27.0200
G03 X26.0000 Y24.5000 I-0.0197 J-1.0001
G01 Y24.4701
G01 X9.0000 Y24.4800
G03 X8.0000 Y25.5000 I-1.0001 J0.0197
G01 X6.5000
G01 Y28.0000
G01 X7.9800
G03 X9.0000 Y29.0000 I0.0197 J1.0001
G01 Y29.5000
G01 X26.0000
G01 Y29.0200
G01 X26.0025 Y28.9293
G01 X26.0146 Y28.8300
G01 X26.0148 Y28.8288
G01 X25.8199 Y28.7850
G00 Z5.0000


(Nr. 6: Ausschnitt 7)


(Nr. 7: Ausschnitt 7)
G00 X31.4092 Y21.6304 Z5.0000
G00 Z0.5000
G01 Z-2.0000 F600
G02 X31.6304 Y22.5908 I0.5908 J0.3696 F1500
G02 X32.5908 Y22.3696 I0.3696 J-0.5908
G02 X32.3696 Y21.4092 I-0.5908 J-0.3696
G02 X31.4092 Y21.6304 I-0.3696 J0.5908
G01 Z-3.0000 F600
G02 X31.6304 Y22.5908 I0.5908 J0.3696 F1500
G02 X32.5908 Y22.3696 I0.3696 J-0.5908
G02 X32.3696 Y21.4092 I-0.5908 J-0.3696
G02 X31.4092 Y21.6304 I-0.3696 J0.5908
G00 Z5.0000


(Nr. 8: Ausschnitt 8)


(Nr. 9: Ausschnitt 8)
G00 X31.3090 Y2.9092 Z5.0000
G00 Z0.5000
G01 Z-2.0000 F600
G02 X31.9092 Y3.6910 I0.6910 J0.0908 F1500
G02 X32.6910 Y3.0908 I0.0908 J-0.6910
G02 X32.0908 Y2.3090 I-0.6910 J-0.0908
G02 X31.3090 Y2.9092 I-0.0908 J0.6910
G01 Z-3.0000 F600
G02 X31.9092 Y3.6910 I0.6910 J0.0908 F1500
G02 X32.6910 Y3.0908 I0.0908 J-0.6910
G02 X32.0908 Y2.3090 I-0.6910 J-0.0908
G02 X31.3090 Y2.9092 I-0.0908 J0.6910
G00 Z5.0000


(Nr. 10: Ausschnitt 6)


(Nr. 11: Ausschnitt 6)
G00 X31.7028 Y76.3696 Z5.0000
G00 Z0.5000
G01 Z-2.0000 F600
G02 X31.3696 Y77.2972 I0.2972 J0.6304 F1500
G02 X32.2972 Y77.6304 I0.6304 J-0.2972
G02 X32.6304 Y76.7028 I-0.2972 J-0.6304
G02 X31.7028 Y76.3696 I-0.6304 J0.2972
G01 Z-3.0000 F600
G02 X31.3696 Y77.2972 I0.2972 J0.6304 F1500
G02 X32.2972 Y77.6304 I0.6304 J-0.2972
G02 X32.6304 Y76.7028 I-0.2972 J-0.6304
G02 X31.7028 Y76.3696 I-0.6304 J0.2972
G00 Z5.0000


(Nr. 12: Ausschnitt 12)
G00 X20.8000 Y78.2500 Z5.0000
G00 Z0.5000
G01 Z-2.0000 F600
G01 X14.2000 F1500
G00 Z5.0000
G00 Z0.5000
G01 Z-2.0000 F600
G01 X14.0000 F1500
G01 Y79.0000
G01 X21.0000
G01 Y77.5000
G01 X14.0000
G01 Y78.2500
G01 X14.2000
G00 Z5.0000
G00 Z-1.5000
G01 Z-4.0000 F600
G01 X20.8000 F1500
G00 Z5.0000
G00 Z-1.5000
G01 Z-4.0000 F600
G01 X21.0000 F1500
G01 Y77.5000
G01 X14.0000
G01 Y79.0000
G01 X21.0000
G01 Y78.2500
G01 X20.8000
G00 Z5.0000


(Nr. 13: Ausschnitt 5)


(Nr. 14: Ausschnitt 5)
G00 X2.9915 Y76.3032 Z5.0000
G00 Z0.5000
G01 Z-2.0000 F600
G02 X2.3032 Y77.0085 I0.0085 J0.6968 F1500
G02 X3.0085 Y77.6968 I0.6968 J-0.0085
G02 X3.6968 Y76.9915 I-0.0085 J-0.6968
G02 X2.9915 Y76.3032 I-0.6968 J0.0085
G01 Z-3.0000 F600
G02 X2.3032 Y77.0085 I0.0085 J0.6968 F1500
G02 X3.0085 Y77.6968 I0.6968 J-0.0085
G02 X3.6968 Y76.9915 I-0.0085 J-0.6968
G02 X2.9915 Y76.3032 I-0.6968 J0.0085
G00 Z5.0000
G00 X0.0000 Y0.0000

M05
M30
