(Projekt front)
(Erstellt mit Estlcam Version 10 Build 10,044)
(Laufzeit ca. 00:00:07 Stunden)

(Benoetigte Werkzeuge:)
(Schaftfraeser 6mm)

G17 							(XY-Ebene)
G54 							(lokales KOS)
G21 		
G90 							(Absolutmodus, nicht inkrementell)

G1 G53 z-5 f1000 				(im Referenz-KOS nach oben fahren)
M03 S18000	(Spindel starten)
M00 (Warte bis Drehzahl erreicht)
G00 Z5.0000

(Nr. 1: Ausschnitt 1)
G00 X21.5000 Y17.5000
G00 Z0.5000
G02 X20.7500 Y17.0670 Z-0.8333 I-0.5000 J0.0000 F900
G02 Y17.9330 Z-2.1667 I0.2500 J0.4330
G02 X21.5000 Y17.5000 Z-3.5000 I0.2500 J-0.4330
G02 X20.7500 Y17.0670 Z-4.6667 I-0.5000 J0.0000
G02 Y17.9330 Z-5.8333 I0.2500 J0.4330
G02 X21.5000 Y17.5000 Z-7.0000 I0.2500 J-0.4330
G02 X20.7500 Y17.0670 I-0.5000 J0.0000
G02 Y17.9330 I0.2500 J0.4330
G02 X21.5000 Y17.5000 I0.2500 J-0.4330
G02 X21.0000 Z-6.5000 I-0.2500 J0.0000
G00 Z5.0000


(Nr. 2: Bohrung 1)
G00 X21.0000 Y17.5000 Z0.5000
G01 Z-4.0000 F900
G00 Z0.5000
G00 Z-3.5000
G01 Z-8.0000
G00 Z0.5000
G00 Z-7.5000
G01 Z-11.0000
G00 Z5.0000
G00 X0.0000 Y0.0000

M05
M30
