(Projekt bottom)
(Erstellt mit Estlcam Version 10 Build 10,044)
(Laufzeit ca. 00:01:12 Stunden)

(Benoetigte Werkzeuge:)
(Fraeser Diamantverzahnt 2mm)

G17 (XY-Ebene)
G54 (lokales KOS)
G21            
G90 (Absolutmodus, nicht inkrementell)
M03 S24000
M00 (Warte bis Drehzahl erreicht)
G00 Z5.0000


(Nr. 1: Ausschnitt 5)
G00 X2.5373 Y2.4789
G00 Z0.5000
G01 Z-1.5000 F600 S24000
G02 X2.4789 Y3.4627 I0.4627 J0.5211 F1500
G02 X3.4627 Y3.5211 I0.5211 J-0.4627
G02 X3.5211 Y2.5373 I-0.4627 J-0.5211
G02 X2.5373 Y2.4789 I-0.5211 J0.4627
G00 Z5.0000


(Nr. 2: Ausschnitt 6)
G00 X2.8925 Y21.3115 Z5.0000
G00 Z0.5000
G01 Z-1.5000 F600
G02 X2.3115 Y22.1075 I0.1075 J0.6885 F1500
G02 X3.1075 Y22.6885 I0.6885 J-0.1075
G02 X3.6885 Y21.8925 I-0.1075 J-0.6885
G02 X2.8925 Y21.3115 I-0.6885 J0.1075
G00 Z5.0000


(Nr. 3: Ausschnitt 8)
G00 X5.3146 Y31.6500 Z5.0000
G00 Z0.5000
G01 Z-1.0000 F600
G01 X29.6854 F1500
G01 X30.3000 Y33.4500
G01 X4.7000
G01 Y35.2500
G01 X30.3000
G01 Y37.0500
G01 X4.7000
G01 Y38.8500
G01 X30.3000
G01 Y40.6500
G01 X4.7000
G01 Y42.4500
G01 X30.3000
G01 Y44.2500
G01 X4.7000
G01 Y46.0500
G01 X30.3000
G01 Y47.8500
G01 X4.7000
G01 Y49.6500
G01 X30.3000
G01 Y51.4500
G01 X4.7000
G01 Y53.2500
G01 X30.3000
G01 Y55.0500
G01 X4.7000
G01 Y56.8500
G01 X30.3000
G01 Y58.6500
G01 X4.7000
G01 Y60.4500
G01 X30.3000
G01 Y62.2500
G01 X4.7000
G01 Y64.0500
G01 X30.3000
G01 Y65.8500
G01 X4.7000
G01 Y67.6500
G01 X30.3000
G01 Y69.4500
G01 X4.7000
G01 Y71.2500
G01 X30.3000
G01 Y73.0500
G01 X4.7000
G01 X5.3146 Y74.8500
G01 X29.6854
G00 Z5.0000
G00 Z0.5000
G01 Z-1.0000 F600
G01 X29.8197 Y74.9982 F1500
G02 X30.5000 Y73.4754 I-1.3148 J-1.5007
G01 Y33.0246
G02 X28.4754 Y31.0000 I-2.0032 J-0.0214
G01 X6.5246
G02 X4.5108 Y32.8041 I-0.0222 J2.0011
G01 X4.5000 Y33.0246
G01 Y73.4754
G01 X4.5108 Y73.6959
G02 X6.5246 Y75.5000 I1.9934 J-0.1991
G01 X28.4754
G02 X29.8197 Y74.9982 I0.0231 J-1.9896
G01 X29.6854 Y74.8500
G00 Z5.0000


(Nr. 4: Ausschnitt 3)
G00 X31.4092 Y21.6304 Z5.0000
G00 Z0.5000
G01 Z-1.5000 F600
G02 X31.6304 Y22.5908 I0.5908 J0.3696 F1500
G02 X32.5908 Y22.3696 I0.3696 J-0.5908
G02 X32.3696 Y21.4092 I-0.5908 J-0.3696
G02 X31.4092 Y21.6304 I-0.3696 J0.5908
G00 Z5.0000


(Nr. 5: Ausschnitt 4)
G00 X31.3090 Y2.9092 Z5.0000
G00 Z0.5000
G01 Z-1.5000 F600
G02 X31.9092 Y3.6910 I0.6910 J0.0908 F1500
G02 X32.6910 Y3.0908 I0.0908 J-0.6910
G02 X32.0908 Y2.3090 I-0.6910 J-0.0908
G02 X31.3090 Y2.9092 I-0.0908 J0.6910
G00 Z5.0000


(Nr. 6: Ausschnitt 2)
G00 X31.7028 Y76.3696 Z5.0000
G00 Z0.5000
G01 Z-1.5000 F600
G02 X31.3696 Y77.2972 I0.2972 J0.6304 F1500
G02 X32.2972 Y77.6304 I0.6304 J-0.2972
G02 X32.6304 Y76.7028 I-0.2972 J-0.6304
G02 X31.7028 Y76.3696 I-0.6304 J0.2972
G00 Z5.0000


(Nr. 7: Ausschnitt 1)


(Nr. 8: Ausschnitt 1)
G00 X2.9915 Y76.3032 Z5.0000
G00 Z0.5000
G01 Z-1.5000 F600
G02 X2.3032 Y77.0085 I0.0085 J0.6968 F1500
G02 X3.0085 Y77.6968 I0.6968 J-0.0085
G02 X3.6968 Y76.9915 I-0.0085 J-0.6968
G02 X2.9915 Y76.3032 I-0.6968 J0.0085
G00 Z5.0000


(Nr. 9: Teil 1)
G00 X35.0000 Y-1.0000 Z5.0000
G00 Z0.5000
G01 Z-2.0000 F600
G03 X36.0000 Y0.0200 I-0.0001 J1.0003 F1500
G01 Y80.0000
G03 X34.9800 Y81.0000 I-1.0003 J-0.0001
G01 X0.0000
G03 X-0.9975 Y80.0707 I0.0000 J-1.0000
G01 X-1.0000 Y79.9800
G01 Y0.0000
G01 X-0.9950 Y-0.0998
G03 X0.0200 Y-1.0000 I0.9954 J0.1000
G01 X35.0000
G01 Z-3.5000 F600
G03 X36.0000 Y0.0200 I-0.0001 J1.0003 F1500
G01 Y80.0000
G03 X34.9800 Y81.0000 I-1.0003 J-0.0001
G01 X0.0000
G03 X-0.9975 Y80.0707 I0.0000 J-1.0000
G01 X-1.0000 Y79.9800
G01 Y0.0000
G01 X-0.9950 Y-0.0998
G03 X0.0200 Y-1.0000 I0.9954 J0.1000
G01 X35.0000
G00 Z5.0000
G00 X0.0000 Y0.0000

M05
M30
