(Projekt bottom)
(Erstellt mit Estlcam Version 10 Build 10,044)
(Laufzeit ca. 00:02:38 Stunden)

(Benoetigte Werkzeuge:)
(Schaftfraeser 6mm)

G17 (XY-Ebene)
G54 (lokales KOS)
G21            
G90 (Absolutmodus, nicht inkrementell)
M03 S19000
M00 (Warte bis Drehzahl erreicht)
G00 Z5.0000


(Nr. 1: Heizkammer)
G00 X8.6001 Y12.0500
G00 Z0.5000
G01 Z-4.0000 F900 S19000
G01 X26.4000 F1500
G01 X26.3724 Y17.4500
G01 X8.6276
G00 Z5.0000
G00 Z0.5000
G01 Z-4.0000 F900
G01 X8.0299 Y17.5021 F1500
G02 X12.5284 Y21.5000 I4.4724 J-0.5026
G01 X22.4665 Y21.5001
G02 X27.0000 Y16.9566 I0.0300 J-4.5035
G01 Y8.0800
G02 X26.9200 Y8.0000 I-0.0486 J-0.0314
G01 X8.0800
G01 X8.0130 Y8.0030
G01 X8.0030 Y8.0130
G01 X8.0000 Y8.0800
G01 Y16.9565
G01 X8.0088 Y17.2606
G01 X8.0299 Y17.5021
G01 X8.6276 Y17.4500
G00 Z5.0000
G00 X8.6001 Y12.0500
G00 Z-3.5000
G01 Z-8.0000 F900
G01 X26.4000 F1500
G01 X26.3724 Y17.4500
G01 X8.6276
G00 Z5.0000
G00 Z-3.5000
G01 Z-8.0000 F900
G01 X8.0299 Y17.5021 F1500
G02 X12.5284 Y21.5000 I4.4724 J-0.5026
G01 X22.4665 Y21.5001
G02 X27.0000 Y16.9566 I0.0300 J-4.5035
G01 Y8.0800
G02 X26.9200 Y8.0000 I-0.0486 J-0.0314
G01 X8.0800
G01 X8.0130 Y8.0030
G01 X8.0030 Y8.0130
G01 X8.0000 Y8.0800
G01 Y16.9565
G01 X8.0088 Y17.2606
G01 X8.0299 Y17.5021
G01 X8.6276 Y17.4500
G00 Z5.0000
G00 X8.6001 Y12.0500
G00 Z-7.5000
G01 Z-12.0000 F900
G01 X26.4000 F1500
G01 X26.3724 Y17.4500
G01 X8.6276
G00 Z5.0000
G00 Z-7.5000
G01 Z-12.0000 F900
G01 X8.0299 Y17.5021 F1500
G02 X12.5284 Y21.5000 I4.4724 J-0.5026
G01 X22.4665 Y21.5001
G02 X27.0000 Y16.9566 I0.0300 J-4.5035
G01 Y8.0800
G02 X26.9200 Y8.0000 I-0.0486 J-0.0314
G01 X8.0800
G01 X8.0130 Y8.0030
G01 X8.0030 Y8.0130
G01 X8.0000 Y8.0800
G01 Y16.9565
G01 X8.0088 Y17.2606
G01 X8.0299 Y17.5021
G01 X8.6276 Y17.4500
G00 Z5.0000
G00 X8.6001 Y12.0500
G00 Z-11.5000
G01 Z-14.0000 F900
G01 X26.4000 F1500
G01 X26.3724 Y17.4500
G01 X8.6276
G00 Z5.0000
G00 Z-11.5000
G01 Z-14.0000 F900
G01 X8.0299 Y17.5021 F1500
G02 X12.5284 Y21.5000 I4.4724 J-0.5026
G01 X22.4665 Y21.5001
G02 X27.0000 Y16.9566 I0.0300 J-4.5035
G01 Y8.0800
G02 X26.9200 Y8.0000 I-0.0486 J-0.0314
G01 X8.0800
G01 X8.0130 Y8.0030
G01 X8.0030 Y8.0130
G01 X8.0000 Y8.0800
G01 Y16.9565
G01 X8.0088 Y17.2606
G01 X8.0299 Y17.5021
G01 X8.6276 Y17.4500
G00 Z5.0000


(Nr. 2: Elektronikfach)
G00 X7.1000 Y37.0500 Z5.0000
G00 Z0.5000
G01 Z-4.0000 F900
G01 X27.9000 F1500
G01 Y42.4500
G01 X7.1000
G01 Y47.8500
G01 X27.9000
G01 Y53.2500
G01 X7.1000
G01 Y58.6500
G01 X27.9000
G01 Y64.0500
G01 X7.1000
G01 Y69.4500
G01 X27.9000
G00 Z5.0000
G00 Z0.5000
G01 Z-4.0000 F900
G01 X28.5000 F1500
G01 Y33.0800
G02 X28.4200 Y33.0000 I-0.0486 J-0.0314
G01 X6.5800
G01 X6.5130 Y33.0030
G01 X6.5030 Y33.0130
G01 X6.5000 Y33.0800
G01 Y73.4200
G01 X6.5030 Y73.4870
G01 X6.5130 Y73.4970
G01 X6.5800 Y73.5000
G01 X21.9800
G01 X28.4200
G02 X28.5000 Y73.4200 I0.0314 J-0.0486
G01 Y69.4500
G01 X27.9000
G00 Z5.0000
G00 Y37.0500
G00 Z-3.5000
G01 Z-8.0000 F900
G01 X7.1000 F1500
G01 Y42.4500
G01 X27.9000
G01 Y47.8500
G01 X7.1000
G01 Y53.2500
G01 X27.9000
G01 Y58.6500
G01 X7.1000
G01 Y64.0500
G01 X27.9000
G01 Y69.4500
G01 X7.1000
G00 Z5.0000
G00 Z-3.5000
G01 Z-8.0000 F900
G01 X6.5000 F1500
G01 Y73.4200
G01 X6.5030 Y73.4870
G01 X6.5130 Y73.4970
G01 X6.5800 Y73.5000
G01 X21.9800
G01 X28.4200
G02 X28.5000 Y73.4200 I0.0314 J-0.0486
G01 Y33.0800
G02 X28.4200 Y33.0000 I-0.0486 J-0.0314
G01 X6.5800
G01 X6.5130 Y33.0030
G01 X6.5030 Y33.0130
G01 X6.5000 Y33.0800
G01 Y69.4500
G01 X7.1000
G00 Z5.0000
G00 Y37.0500
G00 Z-7.5000
G01 Z-12.0000 F900
G01 X27.9000 F1500
G01 Y42.4500
G01 X7.1000
G01 Y47.8500
G01 X27.9000
G01 Y53.2500
G01 X7.1000
G01 Y58.6500
G01 X27.9000
G01 Y64.0500
G01 X7.1000
G01 Y69.4500
G01 X27.9000
G00 Z5.0000
G00 Z-7.5000
G01 Z-12.0000 F900
G01 X28.5000 F1500
G01 Y33.0800
G02 X28.4200 Y33.0000 I-0.0486 J-0.0314
G01 X6.5800
G01 X6.5130 Y33.0030
G01 X6.5030 Y33.0130
G01 X6.5000 Y33.0800
G01 Y73.4200
G01 X6.5030 Y73.4870
G01 X6.5130 Y73.4970
G01 X6.5800 Y73.5000
G01 X21.9800
G01 X28.4200
G02 X28.5000 Y73.4200 I0.0314 J-0.0486
G01 Y69.4500
G01 X27.9000
G00 Z5.0000
G00 Y37.0500
G00 Z-11.5000
G01 Z-16.0000 F900
G01 X7.1000 F1500
G01 Y42.4500
G01 X27.9000
G01 Y47.8500
G01 X7.1000
G01 Y53.2500
G01 X27.9000
G01 Y58.6500
G01 X7.1000
G01 Y64.0500
G01 X27.9000
G01 Y69.4500
G01 X7.1000
G00 Z5.0000
G00 Z-11.5000
G01 Z-16.0000 F900
G01 X6.5000 F1500
G01 Y73.4200
G01 X6.5030 Y73.4870
G01 X6.5130 Y73.4970
G01 X6.5800 Y73.5000
G01 X21.9800
G01 X28.4200
G02 X28.5000 Y73.4200 I0.0314 J-0.0486
G01 Y33.0800
G02 X28.4200 Y33.0000 I-0.0486 J-0.0314
G01 X6.5800
G01 X6.5130 Y33.0030
G01 X6.5030 Y33.0130
G01 X6.5000 Y33.0800
G01 Y69.4500
G01 X7.1000
G00 Z5.0000
G00 Y37.0500
G00 Z-15.5000
G01 Z-20.0000 F900
G01 X27.9000 F1500
G01 Y42.4500
G01 X7.1000
G01 Y47.8500
G01 X27.9000
G01 Y53.2500
G01 X7.1000
G01 Y58.6500
G01 X27.9000
G01 Y64.0500
G01 X7.1000
G01 Y69.4500
G01 X27.9000
G00 Z5.0000
G00 Z-15.5000
G01 Z-20.0000 F900
G01 X28.5000 F1500
G01 Y33.0800
G02 X28.4200 Y33.0000 I-0.0486 J-0.0314
G01 X6.5800
G01 X6.5130 Y33.0030
G01 X6.5030 Y33.0130
G01 X6.5000 Y33.0800
G01 Y73.4200
G01 X6.5030 Y73.4870
G01 X6.5130 Y73.4970
G01 X6.5800 Y73.5000
G01 X21.9800
G01 X28.4200
G02 X28.5000 Y73.4200 I0.0314 J-0.0486
G01 Y69.4500
G01 X27.9000
G00 Z5.0000
G00 Y37.0500
G00 Z-19.5000
G01 Z-23.5000 F900
G01 X7.1000 F1500
G01 Y42.4500
G01 X27.9000
G01 Y47.8500
G01 X7.1000
G01 Y53.2500
G01 X27.9000
G01 Y58.6500
G01 X7.1000
G01 Y64.0500
G01 X27.9000
G01 Y69.4500
G01 X7.1000
G00 Z5.0000
G00 Z-19.5000
G01 Z-23.5000 F900
G01 X6.5000 F1500
G01 Y73.4200
G01 X6.5030 Y73.4870
G01 X6.5130 Y73.4970
G01 X6.5800 Y73.5000
G01 X21.9800
G01 X28.4200
G02 X28.5000 Y73.4200 I0.0314 J-0.0486
G01 Y33.0800
G02 X28.4200 Y33.0000 I-0.0486 J-0.0314
G01 X6.5800
G01 X6.5130 Y33.0030
G01 X6.5030 Y33.0130
G01 X6.5000 Y33.0800
G01 Y69.4500
G01 X7.1000
G00 Z5.0000


(Nr. 3: Ausschnitt 5)
G00 X20.2000 Y17.5000 Z5.0000
G00 Z-12.5000
G02 X16.1500 Y15.1617 Z-12.6667 I-2.7000 J0.0000 F900
G02 Y19.8383 Z-12.8333 I1.3500 J2.3383
G02 X20.2000 Y17.5000 Z-13.0000 I1.3500 J-2.3383
G02 X16.1500 Y15.1617 I-2.7000 J0.0000
G02 Y19.8383 I1.3500 J2.3383
G02 X20.2000 Y17.5000 I1.3500 J-2.3383
G02 X16.1500 Y15.1617 Z-14.3333 I-2.7000 J0.0000
G02 Y19.8383 Z-15.6667 I1.3500 J2.3383
G02 X20.2000 Y17.5000 Z-17.0000 I1.3500 J-2.3383
G02 X16.1500 Y15.1617 I-2.7000 J0.0000
G02 Y19.8383 I1.3500 J2.3383
G02 X20.2000 Y17.5000 I1.3500 J-2.3383
G02 X20.3063 Y16.3376 I-2.6408 J-0.8275 F1500
G02 X19.8865 Y15.1135 I-3.0887 J0.3752
G02 X18.9207 Y14.0701 I-2.9643 J1.7750
G02 X17.5000 Y13.5000 I-2.0941 J3.1632
G02 X15.9693 Y13.8045 I0.0000 J4.0000
G02 X14.6716 Y14.6716 I1.5307 J3.6955
G02 X13.8045 Y15.9693 I2.8284 J2.8284
G02 X13.5000 Y17.5000 I3.6955 J1.5307
G02 X13.8045 Y19.0307 I4.0000 J0.0000
G02 X14.6716 Y20.3284 I3.6955 J-1.5307
G02 X15.9693 Y21.1955 I2.8284 J-2.8284
G02 X17.5000 Y21.5000 I1.5307 J-3.6955
G02 X19.0307 Y21.1955 I0.0000 J-4.0000
G02 X20.3284 Y20.3284 I-1.5307 J-3.6955
G02 X21.1955 Y19.0307 I-2.8284 J-2.8284
G02 X21.5000 Y17.5000 I-3.6955 J-1.5307
G02 X15.5000 Y14.0359 I-4.0000 J0.0000
G02 Y20.9641 I2.0000 J3.4641
G02 X21.5000 Y17.5000 I2.0000 J-3.4641
G02 X14.8000 I-3.3500 J0.0000
G02 X20.2000 I2.7000 J0.0000
G02 X16.1500 Y15.1617 Z-18.3333 I-2.7000 J0.0000 F900
G02 Y19.8383 Z-19.6667 I1.3500 J2.3383
G02 X20.2000 Y17.5000 Z-21.0000 I1.3500 J-2.3383
G02 X16.1500 Y15.1617 I-2.7000 J0.0000
G02 Y19.8383 I1.3500 J2.3383
G02 X20.2000 Y17.5000 I1.3500 J-2.3383
G02 X20.3063 Y16.3376 I-2.6408 J-0.8275 F1500
G02 X19.8865 Y15.1135 I-3.0887 J0.3752
G02 X18.9207 Y14.0701 I-2.9643 J1.7750
G02 X17.5000 Y13.5000 I-2.0941 J3.1632
G02 X15.9693 Y13.8045 I0.0000 J4.0000
G02 X14.6716 Y14.6716 I1.5307 J3.6955
G02 X13.8045 Y15.9693 I2.8284 J2.8284
G02 X13.5000 Y17.5000 I3.6955 J1.5307
G02 X13.8045 Y19.0307 I4.0000 J0.0000
G02 X14.6716 Y20.3284 I3.6955 J-1.5307
G02 X15.9693 Y21.1955 I2.8284 J-2.8284
G02 X17.5000 Y21.5000 I1.5307 J-3.6955
G02 X19.0307 Y21.1955 I0.0000 J-4.0000
G02 X20.3284 Y20.3284 I-1.5307 J-3.6955
G02 X21.1955 Y19.0307 I-2.8284 J-2.8284
G02 X21.5000 Y17.5000 I-3.6955 J-1.5307
G02 X15.5000 Y14.0359 I-4.0000 J0.0000
G02 Y20.9641 I2.0000 J3.4641
G02 X21.5000 Y17.5000 I2.0000 J-3.4641
G02 X14.8000 I-3.3500 J0.0000
G02 X20.2000 I2.7000 J0.0000
G02 X16.1500 Y15.1617 Z-22.3333 I-2.7000 J0.0000 F900
G02 Y19.8383 Z-23.6667 I1.3500 J2.3383
G02 X20.2000 Y17.5000 Z-25.0000 I1.3500 J-2.3383
G02 X16.1500 Y15.1617 I-2.7000 J0.0000
G02 Y19.8383 I1.3500 J2.3383
G02 X20.2000 Y17.5000 I1.3500 J-2.3383
G02 X20.3063 Y16.3376 I-2.6408 J-0.8275 F1500
G02 X19.8865 Y15.1135 I-3.0887 J0.3752
G02 X18.9207 Y14.0701 I-2.9643 J1.7750
G02 X17.5000 Y13.5000 I-2.0941 J3.1632
G02 X15.9693 Y13.8045 I0.0000 J4.0000
G02 X14.6716 Y14.6716 I1.5307 J3.6955
G02 X13.8045 Y15.9693 I2.8284 J2.8284
G02 X13.5000 Y17.5000 I3.6955 J1.5307
G02 X13.8045 Y19.0307 I4.0000 J0.0000
G02 X14.6716 Y20.3284 I3.6955 J-1.5307
G02 X15.9693 Y21.1955 I2.8284 J-2.8284
G02 X17.5000 Y21.5000 I1.5307 J-3.6955
G02 X19.0307 Y21.1955 I0.0000 J-4.0000
G02 X20.3284 Y20.3284 I-1.5307 J-3.6955
G02 X21.1955 Y19.0307 I-2.8284 J-2.8284
G02 X21.5000 Y17.5000 I-3.6955 J-1.5307
G02 X15.5000 Y14.0359 I-4.0000 J0.0000
G02 Y20.9641 I2.0000 J3.4641
G02 X21.5000 Y17.5000 I2.0000 J-3.4641
G02 X14.8000 I-3.3500 J0.0000
G02 X20.2000 I2.7000 J0.0000
G02 X16.1500 Y15.1617 Z-26.3333 I-2.7000 J0.0000 F900
G02 Y19.8383 Z-27.6667 I1.3500 J2.3383
G02 X20.2000 Y17.5000 Z-29.0000 I1.3500 J-2.3383
G02 X16.1500 Y15.1617 I-2.7000 J0.0000
G02 Y19.8383 I1.3500 J2.3383
G02 X20.2000 Y17.5000 I1.3500 J-2.3383
G02 X20.3063 Y16.3376 I-2.6408 J-0.8275 F1500
G02 X19.8865 Y15.1135 I-3.0887 J0.3752
G02 X18.9207 Y14.0701 I-2.9643 J1.7750
G02 X17.5000 Y13.5000 I-2.0941 J3.1632
G02 X15.9693 Y13.8045 I0.0000 J4.0000
G02 X14.6716 Y14.6716 I1.5307 J3.6955
G02 X13.8045 Y15.9693 I2.8284 J2.8284
G02 X13.5000 Y17.5000 I3.6955 J1.5307
G02 X13.8045 Y19.0307 I4.0000 J0.0000
G02 X14.6716 Y20.3284 I3.6955 J-1.5307
G02 X15.9693 Y21.1955 I2.8284 J-2.8284
G02 X17.5000 Y21.5000 I1.5307 J-3.6955
G02 X19.0307 Y21.1955 I0.0000 J-4.0000
G02 X20.3284 Y20.3284 I-1.5307 J-3.6955
G02 X21.1955 Y19.0307 I-2.8284 J-2.8284
G02 X21.5000 Y17.5000 I-3.6955 J-1.5307
G02 X15.5000 Y14.0359 I-4.0000 J0.0000
G02 Y20.9641 I2.0000 J3.4641
G02 X21.5000 Y17.5000 I2.0000 J-3.4641
G02 X18.5000 Y14.5000 Z-28.5000 I-3.0000 J0.0000 F900
G00 Z5.0000
G00 X0.0000 Y0.0000

M05
M30
