(Projekt bottom)
(Erstellt mit Estlcam Version 8 Build 8,204)
(Laufzeit ca. 00:12:04 Stunden)

(Benoetigte Werkzeuge:)
(Schaftfraeser)
(Fraeser Diamantverzahnt 2,0)

G17 							(XY-Ebene)
G54 							(lokales KOS)
G21 							(metrische Einheiten)
G64 P 0.01 						(experimentell, geht auch ohne; maximale Wegabweichungstoleranz 0,01mm)

(1. Werkzeugwechsel und einmessen)
M5 								(Spindel aus, zur Sicherheit)
G90 							(Absolutmodus, nicht inkrementell)
G1 G53 z-5 f1000 				(im Referenz-KOS nach oben fahren)
o<probe_init> call  			(Aufruf des 1. Längenmessmakros)


(Nr. 1: Tasche raeumen: Ausschnitt 2)
G00 X72.9000 Y8.5000 Z5.0000 S18000 M3
G00 Z0.5000
G01 Z-4.0000 F500
G01 X33.6000
G01 Y13.0000
G01 X72.9000
G01 Y17.5000
G01 X33.6000
G01 Y22.0000
G01 X72.9000
G01 Y26.5000
G01 X33.6000
G00 Z5.0000
G00 X72.9000 Y8.5000
G00 Z-3.5000
G01 Z-8.0000
G01 X33.6000
G01 Y13.0000
G01 X72.9000
G01 Y17.5000
G01 X33.6000
G01 Y22.0000
G01 X72.9000
G01 Y26.5000
G01 X33.6000
G00 Z5.0000
G00 X72.9000 Y8.5000
G00 Z-7.5000
G01 Z-12.0000
G01 X33.6000
G01 Y13.0000
G01 X72.9000
G01 Y17.5000
G01 X33.6000
G01 Y22.0000
G01 X72.9000
G01 Y26.5000
G01 X33.6000
G00 Z5.0000
G00 X72.9000 Y8.5000
G00 Z-11.5000
G01 Z-16.0000
G01 X33.6000
G01 Y13.0000
G01 X72.9000
G01 Y17.5000
G01 X33.6000
G01 Y22.0000
G01 X72.9000
G01 Y26.5000
G01 X33.6000
G00 Z5.0000
G00 X72.9000 Y8.5000
G00 Z-15.5000
G01 Z-20.0000
G01 X33.6000
G01 Y13.0000
G01 X72.9000
G01 Y17.5000
G01 X33.6000
G01 Y22.0000
G01 X72.9000
G01 Y26.5000
G01 X33.6000
G00 Z5.0000
G00 X72.9000 Y8.5000
G00 Z-19.5000
G01 Z-23.5000
G01 X33.6000
G01 Y13.0000
G01 X72.9000
G01 Y17.5000
G01 X33.6000
G01 Y22.0000
G01 X72.9000
G01 Y26.5000
G01 X33.6000
G00 Z5.0000


(Nr. 2: Tasche Seitenwand: Ausschnitt 2)
G00 X33.0004 Y6.5025 Z5.0000
G00 Z0.5000
G01 Z-4.0000 F500
G01 X33.0162 Y6.4992
G01 X33.0006 Y6.5025
G01 X33.0161 Y6.4979
G01 X33.0017 Y6.5044
G01 X33.0000 Y6.5620
G01 X33.0026 Y28.4998
G01 X32.9956 Y28.4441
G01 X33.0025 Y28.4996
G01 X32.9992 Y28.4838
G01 X33.0025 Y28.4994
G01 X32.9979 Y28.4839
G01 X33.0044 Y28.4983
G01 X33.0440 Y28.5029
G01 X73.4441 Y28.5044
G01 X73.4996 Y28.4975
G01 X73.4838 Y28.5008
G01 X73.4994 Y28.4975
G01 X73.4839 Y28.5021
G01 X73.4983 Y28.4956
G01 X73.5029 Y28.4560
G01 X73.4974 Y6.5002
G01 X73.5044 Y6.5559
G01 X73.4975 Y6.5004
G01 X73.5008 Y6.5162
G01 X73.4975 Y6.5006
G01 X73.5021 Y6.5161
G01 X73.4956 Y6.5017
G01 X73.4560 Y6.4971
G01 X33.0004 Y6.5025
G01 Z-8.0000
G01 X33.0162 Y6.4992
G01 X33.0006 Y6.5025
G01 X33.0161 Y6.4979
G01 X33.0017 Y6.5044
G01 X33.0000 Y6.5620
G01 X33.0026 Y28.4998
G01 X32.9956 Y28.4441
G01 X33.0025 Y28.4996
G01 X32.9992 Y28.4838
G01 X33.0025 Y28.4994
G01 X32.9979 Y28.4839
G01 X33.0044 Y28.4983
G01 X33.0440 Y28.5029
G01 X73.4441 Y28.5044
G01 X73.4996 Y28.4975
G01 X73.4838 Y28.5008
G01 X73.4994 Y28.4975
G01 X73.4839 Y28.5021
G01 X73.4983 Y28.4956
G01 X73.5029 Y28.4560
G01 X73.4974 Y6.5002
G01 X73.5044 Y6.5559
G01 X73.4975 Y6.5004
G01 X73.5008 Y6.5162
G01 X73.4975 Y6.5006
G01 X73.5021 Y6.5161
G01 X73.4956 Y6.5017
G01 X73.4560 Y6.4971
G01 X33.0004 Y6.5025
G01 Z-12.0000
G01 X33.0162 Y6.4992
G01 X33.0006 Y6.5025
G01 X33.0161 Y6.4979
G01 X33.0017 Y6.5044
G01 X33.0000 Y6.5620
G01 X33.0026 Y28.4998
G01 X32.9956 Y28.4441
G01 X33.0025 Y28.4996
G01 X32.9992 Y28.4838
G01 X33.0025 Y28.4994
G01 X32.9979 Y28.4839
G01 X33.0044 Y28.4983
G01 X33.0440 Y28.5029
G01 X73.4441 Y28.5044
G01 X73.4996 Y28.4975
G01 X73.4838 Y28.5008
G01 X73.4994 Y28.4975
G01 X73.4839 Y28.5021
G01 X73.4983 Y28.4956
G01 X73.5029 Y28.4560
G01 X73.4974 Y6.5002
G01 X73.5044 Y6.5559
G01 X73.4975 Y6.5004
G01 X73.5008 Y6.5162
G01 X73.4975 Y6.5006
G01 X73.5021 Y6.5161
G01 X73.4956 Y6.5017
G01 X73.4560 Y6.4971
G01 X33.0004 Y6.5025
G01 Z-16.0000
G01 X33.0162 Y6.4992
G01 X33.0006 Y6.5025
G01 X33.0161 Y6.4979
G01 X33.0017 Y6.5044
G01 X33.0000 Y6.5620
G01 X33.0026 Y28.4998
G01 X32.9956 Y28.4441
G01 X33.0025 Y28.4996
G01 X32.9992 Y28.4838
G01 X33.0025 Y28.4994
G01 X32.9979 Y28.4839
G01 X33.0044 Y28.4983
G01 X33.0440 Y28.5029
G01 X73.4441 Y28.5044
G01 X73.4996 Y28.4975
G01 X73.4838 Y28.5008
G01 X73.4994 Y28.4975
G01 X73.4839 Y28.5021
G01 X73.4983 Y28.4956
G01 X73.5029 Y28.4560
G01 X73.4974 Y6.5002
G01 X73.5044 Y6.5559
G01 X73.4975 Y6.5004
G01 X73.5008 Y6.5162
G01 X73.4975 Y6.5006
G01 X73.5021 Y6.5161
G01 X73.4956 Y6.5017
G01 X73.4560 Y6.4971
G01 X33.0004 Y6.5025
G01 Z-20.0000
G01 X33.0162 Y6.4992
G01 X33.0006 Y6.5025
G01 X33.0161 Y6.4979
G01 X33.0017 Y6.5044
G01 X33.0000 Y6.5620
G01 X33.0026 Y28.4998
G01 X32.9956 Y28.4441
G01 X33.0025 Y28.4996
G01 X32.9992 Y28.4838
G01 X33.0025 Y28.4994
G01 X32.9979 Y28.4839
G01 X33.0044 Y28.4983
G01 X33.0440 Y28.5029
G01 X73.4441 Y28.5044
G01 X73.4996 Y28.4975
G01 X73.4838 Y28.5008
G01 X73.4994 Y28.4975
G01 X73.4839 Y28.5021
G01 X73.4983 Y28.4956
G01 X73.5029 Y28.4560
G01 X73.4974 Y6.5002
G01 X73.5044 Y6.5559
G01 X73.4975 Y6.5004
G01 X73.5008 Y6.5162
G01 X73.4975 Y6.5006
G01 X73.5021 Y6.5161
G01 X73.4956 Y6.5017
G01 X73.4560 Y6.4971
G01 X33.0004 Y6.5025
G01 Z-23.5000
G01 X33.0162 Y6.4992
G01 X33.0006 Y6.5025
G01 X33.0161 Y6.4979
G01 X33.0017 Y6.5044
G01 X33.0000 Y6.5620
G01 X33.0026 Y28.4998
G01 X32.9956 Y28.4441
G01 X33.0025 Y28.4996
G01 X32.9992 Y28.4838
G01 X33.0025 Y28.4994
G01 X32.9979 Y28.4839
G01 X33.0044 Y28.4983
G01 X33.0440 Y28.5029
G01 X73.4441 Y28.5044
G01 X73.4996 Y28.4975
G01 X73.4838 Y28.5008
G01 X73.4994 Y28.4975
G01 X73.4839 Y28.5021
G01 X73.4983 Y28.4956
G01 X73.5029 Y28.4560
G01 X73.4974 Y6.5002
G01 X73.5044 Y6.5559
G01 X73.4975 Y6.5004
G01 X73.5008 Y6.5162
G01 X73.4975 Y6.5006
G01 X73.5021 Y6.5161
G01 X73.4956 Y6.5017
G01 X73.4560 Y6.4971
G01 X33.0004 Y6.5025
G00 Z5.0000


(Nr. 3: Tasche raeumen: Ausschnitt 1)
G00 X20.8897 Y13.0000 Z5.0000
G00 Z0.5000
G01 Z-4.0000 F500
G01 X8.6000
G01 Y17.5000
G01 X20.9000
G01 X20.9103 Y22.0000
G01 X8.6000
G00 Z5.0000
G00 X20.8897 Y13.0000
G00 Z-3.5000
G01 Z-8.0000
G01 X8.6000
G01 Y17.5000
G01 X20.9000
G01 X20.9103 Y22.0000
G01 X8.6000
G00 Z5.0000
G00 X20.8897 Y13.0000
G00 Z-7.5000
G01 Z-12.0000
G01 X8.6000
G01 Y17.5000
G01 X20.9000
G01 X20.9103 Y22.0000
G01 X8.6000
G00 Z5.0000
G00 X20.8897 Y13.0000
G00 Z-11.5000
G01 Z-15.0000
G01 X8.6000
G01 Y17.5000
G01 X20.9000
G01 X20.9103 Y22.0000
G01 X8.6000
G00 Z5.0000


(Nr. 4: Tasche Seitenwand: Ausschnitt 1)
G00 X21.4812 Y11.1103 Z5.0000
G00 Z0.5000
G01 Z-4.0000 F500
G02 X18.6943 Y8.0694 I-3.4861 J0.3974
G01 X18.3642 Y8.0186
G01 X17.9625 Y7.9998
G01 X8.0004 Y8.0025
G01 X8.0162 Y7.9992
G01 X8.0006 Y8.0025
G01 X8.0161 Y7.9979
G01 X8.0017 Y8.0044
G01 X7.9971 Y8.0440
G01 X7.9956 Y26.9441
G01 X8.0025 Y26.9996
G01 X7.9992 Y26.9838
G01 X8.0025 Y26.9994
G01 X7.9979 Y26.9839
G01 X8.0044 Y26.9983
G01 X8.0440 Y27.0029
G01 X18.1228 Y26.9992
G01 X18.5222 Y26.9664
G02 X20.6520 Y25.8161 I-0.4825 J-3.4402
G02 X21.5067 Y23.7541 I-2.6136 J-2.2915
G01 X21.4812 Y11.1103
G01 Z-8.0000
G02 X18.6943 Y8.0694 I-3.4861 J0.3974
G01 X18.3642 Y8.0186
G01 X17.9625 Y7.9998
G01 X8.0004 Y8.0025
G01 X8.0162 Y7.9992
G01 X8.0006 Y8.0025
G01 X8.0161 Y7.9979
G01 X8.0017 Y8.0044
G01 X7.9971 Y8.0440
G01 X7.9956 Y26.9441
G01 X8.0025 Y26.9996
G01 X7.9992 Y26.9838
G01 X8.0025 Y26.9994
G01 X7.9979 Y26.9839
G01 X8.0044 Y26.9983
G01 X8.0440 Y27.0029
G01 X18.1228 Y26.9992
G01 X18.5222 Y26.9664
G02 X20.6520 Y25.8161 I-0.4825 J-3.4402
G02 X21.5067 Y23.7541 I-2.6136 J-2.2915
G01 X21.4812 Y11.1103
G01 Z-12.0000
G02 X18.6943 Y8.0694 I-3.4861 J0.3974
G01 X18.3642 Y8.0186
G01 X17.9625 Y7.9998
G01 X8.0004 Y8.0025
G01 X8.0162 Y7.9992
G01 X8.0006 Y8.0025
G01 X8.0161 Y7.9979
G01 X8.0017 Y8.0044
G01 X7.9971 Y8.0440
G01 X7.9956 Y26.9441
G01 X8.0025 Y26.9996
G01 X7.9992 Y26.9838
G01 X8.0025 Y26.9994
G01 X7.9979 Y26.9839
G01 X8.0044 Y26.9983
G01 X8.0440 Y27.0029
G01 X18.1228 Y26.9992
G01 X18.5222 Y26.9664
G02 X20.6520 Y25.8161 I-0.4825 J-3.4402
G02 X21.5067 Y23.7541 I-2.6136 J-2.2915
G01 X21.4812 Y11.1103
G01 Z-15.0000
G02 X18.6943 Y8.0694 I-3.4861 J0.3974
G01 X18.3642 Y8.0186
G01 X17.9625 Y7.9998
G01 X8.0004 Y8.0025
G01 X8.0162 Y7.9992
G01 X8.0006 Y8.0025
G01 X8.0161 Y7.9979
G01 X8.0017 Y8.0044
G01 X7.9971 Y8.0440
G01 X7.9956 Y26.9441
G01 X8.0025 Y26.9996
G01 X7.9992 Y26.9838
G01 X8.0025 Y26.9994
G01 X7.9979 Y26.9839
G01 X8.0044 Y26.9983
G01 X8.0440 Y27.0029
G01 X18.1228 Y26.9992
G01 X18.5222 Y26.9664
G02 X20.6520 Y25.8161 I-0.4825 J-3.4402
G02 X21.5067 Y23.7541 I-2.6136 J-2.2915
G01 X21.4812 Y11.1103
G00 Z5.0000


(Nr. 5: Tasche raeumen: Ausschnitt 3)
G00 X20.0469 Y15.2500 Z5.0000
G00 Z-14.5000
G01 Z-19.0000 F500
G01 X14.9531
G01 X14.9558 Y19.7500
G01 X20.0433
G00 Z5.0000


(Nr. 6: Tasche Seitenwand: Ausschnitt 3)
G00 X17.5000 Y13.5011 Z5.0000
G00 Z-14.5000
G01 Z-19.0000 F500
G02 X13.5012 Y17.3908 I-0.0025 J3.9978
G02 X17.6763 Y21.4964 I3.9988 J0.1092
G02 X17.5000 Y13.5011 I-0.1756 J-3.9957
G00 Z5.0000


(Nr. 7: Ausschnitt 13)
M5 								(Spindel aus)
G90 							(Absolutmodus, nicht inkrementell)
G1 G53 z-5 f1000 				(im Referenz-KOS nach oben fahren)
M6 T2 							(Werkzeugwechsel zu Werkzeug T2)
o<probe_tool> call				(Aufruf des 2. Längenmessmakros)

G00 X3.0006 Y31.5031 Z5.0000 S24000 M3
G00 Z0.5000
G01 Z-2.0000 F300 S24000
G02 X2.5027 Y32.0010 I0.0000 J0.4979
G02 X3.0006 Y32.4989 I0.4979 J0.0000
G02 X3.4985 Y32.0010 I0.0000 J-0.4979
G02 X3.0006 Y31.5031 I-0.4979 J0.0000
G01 Z-3.0000
G02 X2.5027 Y32.0010 I0.0000 J0.4979
G02 X3.0006 Y32.4989 I0.4979 J0.0000
G02 X3.4985 Y32.0010 I0.0000 J-0.4979
G02 X3.0006 Y31.5031 I-0.4979 J0.0000
G00 Z5.0000


(Nr. 8: Ausschnitt 15)
G00 X2.9995 Y2.4998 Z5.0000
G00 Z0.5000
G01 Z-2.0000 F300
G02 X2.5009 Y2.9983 I0.0000 J0.4986
G02 X2.9995 Y3.4969 I0.4986 J0.0000
G02 X3.4980 Y2.9983 I0.0000 J-0.4986
G02 X2.9995 Y2.4998 I-0.4986 J0.0000
G01 Z-3.0000
G02 X2.5009 Y2.9983 I0.0000 J0.4986
G02 X2.9995 Y3.4969 I0.4986 J0.0000
G02 X3.4980 Y2.9983 I0.0000 J-0.4986
G02 X2.9995 Y2.4998 I-0.4986 J0.0000
G00 Z5.0000


(Nr. 9: Ausschnitt 16)
G00 X21.5042 Y3.0004 Z5.0000
G00 Z0.5000
G01 Z-2.0000 F300
G02 X22.3544 Y3.3513 I0.4971 J0.0010
G02 X22.0185 Y2.5014 I-0.3544 J-0.3513
G02 X21.5042 Y3.0004 I-0.0165 J0.4974
G01 Z-3.0000
G02 X22.3544 Y3.3513 I0.4971 J0.0010
G02 X22.0185 Y2.5014 I-0.3544 J-0.3513
G02 X21.5042 Y3.0004 I-0.0165 J0.4974
G00 Z5.0000


(Nr. 10: Ausschnitt 14)
G00 X22.0018 Y31.5035 Z5.0000
G00 Z0.5000
G01 Z-2.0000 F300
G02 X21.5045 Y32.0007 I0.0000 J0.4972
G02 X22.0018 Y32.4980 I0.4972 J0.0000
G02 X22.4990 Y32.0007 I0.0000 J-0.4972
G02 X22.0018 Y31.5035 I-0.4972 J0.0000
G01 Z-3.0000
G02 X21.5045 Y32.0007 I0.0000 J0.4972
G02 X22.0018 Y32.4980 I0.4972 J0.0000
G02 X22.4990 Y32.0007 I0.0000 J-0.4972
G02 X22.0018 Y31.5035 I-0.4972 J0.0000
G00 Z5.0000


(Nr. 11: Ausschnitt 17)
G00 X77.0028 Y31.5027 Z5.0000
G00 Z0.5000
G01 Z-2.0000 F300
G02 X76.5055 Y32.0000 I0.0000 J0.4973
G02 X77.0028 Y32.4974 I0.4973 J0.0000
G02 X77.5001 Y32.0000 I0.0000 J-0.4973
G02 X77.0028 Y31.5027 I-0.4973 J0.0000
G01 Z-3.0000
G02 X76.5055 Y32.0000 I0.0000 J0.4973
G02 X77.0028 Y32.4974 I0.4973 J0.0000
G02 X77.5001 Y32.0000 I0.0000 J-0.4973
G02 X77.0028 Y31.5027 I-0.4973 J0.0000
G00 Z5.0000


(Nr. 12: Ausschnitt 18)
G00 X77.0000 Y2.5005 Z5.0000
G00 Z0.5000
G01 Z-2.0000 F300
G02 X76.5014 Y2.9992 I0.0000 J0.4986
G02 X77.0000 Y3.4978 I0.4986 J0.0000
G02 X77.4987 Y2.9992 I0.0000 J-0.4986
G02 X77.0000 Y2.5005 I-0.4986 J0.0000
G01 Z-3.0000
G02 X76.5014 Y2.9992 I0.0000 J0.4986
G02 X77.0000 Y3.4978 I0.4986 J0.0000
G02 X77.4987 Y2.9992 I0.0000 J-0.4986
G02 X77.0000 Y2.5005 I-0.4986 J0.0000
G00 Z5.0000


(Nr. 13: Ausschnitt 30)
G00 X29.9400 Y9.0000 Z5.0000
G00 Z0.5000
G01 Z-2.0000 F300
G01 X23.4462 Y9.0070
G01 X23.4707 Y25.9986
G01 X23.5200 Y26.0000
G01 X29.9564 Y25.9993
G01 X29.9400 Y9.0000
G01 Z-4.0000
G01 X23.4462 Y9.0070
G01 X23.4707 Y25.9986
G01 X23.5200 Y26.0000
G01 X29.9564 Y25.9993
G01 X29.9400 Y9.0000
G01 Z-6.0000
G01 X23.4462 Y9.0070
G01 X23.4707 Y25.9986
G01 X23.5200 Y26.0000
G01 X29.9564 Y25.9993
G01 X29.9400 Y9.0000
G01 Z-8.0000
G01 X23.4462 Y9.0070
G01 X23.4707 Y25.9986
G01 X23.5200 Y26.0000
G01 X29.9564 Y25.9993
G01 X29.9400 Y9.0000
G01 Z-10.0000
G01 X23.4462 Y9.0070
G01 X23.4707 Y25.9986
G01 X23.5200 Y26.0000
G01 X29.9564 Y25.9993
G01 X29.9400 Y9.0000
G00 Z5.0000


(Nr. 14: Tasche raeumen: Ausschnitt 28)
G00 X27.7500 Y4.7000 Z5.0000
G00 Z0.5000
G01 Z-2.0000 F300
G01 Y30.3000
G01 X26.7500
G01 Y4.7000
G01 X25.7500
G01 Y30.3000
G00 Z5.0000
G00 X27.7500 Y4.7000
G00 Z-1.5000
G01 Z-4.0000
G01 Y30.3000
G01 X26.7500
G01 Y4.7000
G01 X25.7500
G01 Y30.3000
G00 Z5.0000
G00 X27.7500 Y4.7000
G00 Z-3.5000
G01 Z-6.0000
G01 Y30.3000
G01 X26.7500
G01 Y4.7000
G01 X25.7500
G01 Y30.3000
G00 Z5.0000
G00 X27.7500 Y4.7000
G00 Z-5.5000
G01 Z-8.0000
G01 Y30.3000
G01 X26.7500
G01 Y4.7000
G01 X25.7500
G01 Y30.3000
G00 Z5.0000
G00 X27.7500 Y4.7000
G00 Z-7.5000
G01 Z-10.0000
G01 Y30.3000
G01 X26.7500
G01 Y4.7000
G01 X25.7500
G01 Y30.3000
G00 Z5.0000


(Nr. 15: Tasche Seitenwand: Ausschnitt 28)
G00 X28.0000 Y4.5000 Z5.0000
G00 Z0.5000
G01 Z-2.0000 F300
G01 X25.5000
G01 Y30.5000
G01 X28.0000
G01 Y4.5000
G01 Z-4.0000
G01 X25.5000
G01 Y30.5000
G01 X28.0000
G01 Y4.5000
G01 Z-6.0000
G01 X25.5000
G01 Y30.5000
G01 X28.0000
G01 Y4.5000
G01 Z-8.0000
G01 X25.5000
G01 Y30.5000
G01 X28.0000
G01 Y4.5000
G01 Z-10.0000
G01 X25.5000
G01 Y30.5000
G01 X28.0000
G01 Y4.5000
G00 Z5.0000
G00 X0.0000 Y0.0000

M05
M30
