(Projekt front)
(Erstellt mit Estlcam Version 8 Build 8,204)
(Laufzeit ca. 00:00:45 Stunden)

(Benoetigte Werkzeuge:)
(Fraeser Diamantverzahnt 1,5 T1)
(Schaftfraeser T2)

G17 							(XY-Ebene)
G54 							(lokales KOS)
G21 							(metrische Einheiten)
G64 P 0.01 						(experimentell, geht auch ohne; maximale Wegabweichungstoleranz 0,01mm)

(1. Werkzeugwechsel und einmessen)
M5 								(Spindel aus, zur Sicherheit)
G90 							(Absolutmodus, nicht inkrementell)
G1 G53 z-5 f1000 				(im Referenz-KOS nach oben fahren)
o<probe_init> call  			(Aufruf des 1. Längenmessmakros)


(Nr. 1: Ausschnitt 1)
G00 X8.9999 Y22.2527 Z5.000 S24000 M3
G00 Z0.5000
G01 Z-1.0000 F250
G02 X8.2510 Y23.0016 I0.0000 J0.7489
G02 X8.9999 Y23.7505 I0.7489 J0.0000
G02 X9.7489 Y23.0016 I0.0000 J-0.7489
G02 X8.9999 Y22.2527 I-0.7489 J0.0000
G01 Z-2.0000
G02 X8.2510 Y23.0016 I0.0000 J0.7489
G02 X8.9999 Y23.7505 I0.7489 J0.0000
G02 X9.7489 Y23.0016 I0.0000 J-0.7489
G02 X8.9999 Y22.2527 I-0.7489 J0.0000
G01 Z-3.0000
G02 X8.2510 Y23.0016 I0.0000 J0.7489
G02 X8.9999 Y23.7505 I0.7489 J0.0000
G02 X9.7489 Y23.0016 I0.0000 J-0.7489
G02 X8.9999 Y22.2527 I-0.7489 J0.0000
G01 Z-4.0000
G02 X8.2510 Y23.0016 I0.0000 J0.7489
G02 X8.9999 Y23.7505 I0.7489 J0.0000
G02 X9.7489 Y23.0016 I0.0000 J-0.7489
G02 X8.9999 Y22.2527 I-0.7489 J0.0000
G01 Z-5.0000
G02 X8.2510 Y23.0016 I0.0000 J0.7489
G02 X8.9999 Y23.7505 I0.7489 J0.0000
G02 X9.7489 Y23.0016 I0.0000 J-0.7489
G02 X8.9999 Y22.2527 I-0.7489 J0.0000
G01 Z-6.0000
G02 X8.2510 Y23.0016 I0.0000 J0.7489
G02 X8.9999 Y23.7505 I0.7489 J0.0000
G02 X9.7489 Y23.0016 I0.0000 J-0.7489
G02 X8.9999 Y22.2527 I-0.7489 J0.0000
G00 Z5.0000


(Nr. 2: Ausschnitt 2)
G00 X25.2518 Y23.0014 Z5.0000
G00 Z0.5000
G01 Z-1.0000 F250
G02 X26.5819 Y23.4711 I0.7479 J0.0003
G02 X26.0399 Y22.2515 I-0.5816 J-0.4718
G02 X25.2518 Y23.0014 I-0.0412 J0.7457
G01 Z-2.0000
G02 X26.5819 Y23.4711 I0.7479 J0.0003
G02 X26.0399 Y22.2515 I-0.5816 J-0.4718
G02 X25.2518 Y23.0014 I-0.0412 J0.7457
G01 Z-3.0000
G02 X26.5819 Y23.4711 I0.7479 J0.0003
G02 X26.0399 Y22.2515 I-0.5816 J-0.4718
G02 X25.2518 Y23.0014 I-0.0412 J0.7457
G01 Z-4.0000
G02 X26.5819 Y23.4711 I0.7479 J0.0003
G02 X26.0399 Y22.2515 I-0.5816 J-0.4718
G02 X25.2518 Y23.0014 I-0.0412 J0.7457
G01 Z-5.0000
G02 X26.5819 Y23.4711 I0.7479 J0.0003
G02 X26.0399 Y22.2515 I-0.5816 J-0.4718
G02 X25.2518 Y23.0014 I-0.0412 J0.7457
G01 Z-6.0000
G02 X26.5819 Y23.4711 I0.7479 J0.0003
G02 X26.0399 Y22.2515 I-0.5816 J-0.4718
G02 X25.2518 Y23.0014 I-0.0412 J0.7457
G00 Z5.0000


(Nr. 3: Bohrung 1)
M5 								(Spindel aus)
G90 							(Absolutmodus, nicht inkrementell)
G1 G53 z-5 f1000 				(im Referenz-KOS nach oben fahren)
M6 T2 							(Werkzeugwechsel zu Werkzeug T2)
o<probe_tool> call				(Aufruf des 2. Längenmessmakros)

G00 X3.0006 Y31.5031 Z5.0000 S15000 M3
G00 Z0.5000
G01 Z-1.0000 F300
G00 X17.5000 Y5.0000 Z5.0000
G00 Z0.5000
G01 Z-4.0000 F500 S15000
G00 Z0.5000
G00 Z-3.5000
G01 Z-8.0000
G00 Z0.5000
G00 Z-7.5000
G01 Z-11.0000
G00 Z5.0000


(Nr. 4: Kreistasche 1)
G00 X18.0000 Y5.0000 Z5.0000
G00 Z0.5000
G02 X17.2500 Y4.5670 Z-0.8333 I-0.5000 J0.0000 F500
G02 Y5.4330 Z-2.1667 I0.2500 J0.4330
G02 X18.0000 Y5.0000 Z-3.5000 I0.2500 J-0.4330
G02 X17.2500 Y4.5670 Z-4.8333 I-0.5000 J0.0000
G02 Y5.4330 Z-6.1667 I0.2500 J0.4330
G02 X18.0000 Y5.0000 Z-7.5000 I0.2500 J-0.4330
G02 X17.2500 Y4.5670 Z-7.6667 I-0.5000 J0.0000
G02 Y5.4330 Z-7.8333 I0.2500 J0.4330
G02 X18.0000 Y5.0000 Z-8.0000 I0.2500 J-0.4330
G02 X17.2500 Y4.5670 I-0.5000 J0.0000
G02 Y5.4330 I0.2500 J0.4330
G02 X18.0000 Y5.0000 I0.2500 J-0.4330
G00 Z5.0000

G90 							(Absolutmodus, nicht inkrementell)
G1 G53 z-5 f1000 				(im Referenz-KOS nach oben fahren)
M5
M30
