(Projekt front)
(Erstellt mit Estlcam Version 10 Build 10,044)
(Laufzeit ca. 00:00:11 Stunden)

(Benoetigte Werkzeuge:)
(Fraeser Diamantverzahnt 2mm)

G17 							(XY-Ebene)
G54 							(lokales KOS)
G21 		
G90 							(Absolutmodus, nicht inkrementell)

G1 G53 z-5 f1000 				(im Referenz-KOS nach oben fahren)
M03 S24000	(Spindel starten)
M00 (Warte bis Drehzahl erreicht)
G00 Z5.0000

(Nr. 1: Ausschnitt 5)
G00 X4.0000 Y9.0000
G00 Z0.5000
G02 X3.2500 Y8.5670 Z-0.1667 I-0.5000 J0.0000 F600
G02 Y9.4330 Z-0.8333 I0.2500 J0.4330
G02 X4.0000 Y9.0000 Z-1.5000 I0.2500 J-0.4330
G02 X3.2500 Y8.5670 Z-2.1667 I-0.5000 J0.0000
G02 Y9.4330 Z-2.8333 I0.2500 J0.4330
G02 X4.0000 Y9.0000 Z-3.5000 I0.2500 J-0.4330
G02 X3.2500 Y8.5670 Z-4.1667 I-0.5000 J0.0000
G02 Y9.4330 Z-4.8333 I0.2500 J0.4330
G02 X4.0000 Y9.0000 Z-5.5000 I0.2500 J-0.4330
G02 X3.2500 Y8.5670 Z-5.6667 I-0.5000 J0.0000
G02 Y9.4330 Z-5.8333 I0.2500 J0.4330
G02 X4.0000 Y9.0000 Z-6.0000 I0.2500 J-0.4330
G02 X3.2500 Y8.5670 I-0.5000 J0.0000
G02 Y9.4330 I0.2500 J0.4330
G02 X4.0000 Y9.0000 I0.2500 J-0.4330
G02 X3.5000 Z-5.5000 I-0.2500 J0.0000
G00 Z5.0000


(Nr. 2: Ausschnitt 4)
G00 X4.0000 Y26.0000 Z5.0000
G00 Z0.5000
G02 X3.2500 Y25.5670 Z-0.1667 I-0.5000 J0.0000 F600
G02 Y26.4330 Z-0.8333 I0.2500 J0.4330
G02 X4.0000 Y26.0000 Z-1.5000 I0.2500 J-0.4330
G02 X3.2500 Y25.5670 Z-2.1667 I-0.5000 J0.0000
G02 Y26.4330 Z-2.8333 I0.2500 J0.4330
G02 X4.0000 Y26.0000 Z-3.5000 I0.2500 J-0.4330
G02 X3.2500 Y25.5670 Z-4.1667 I-0.5000 J0.0000
G02 Y26.4330 Z-4.8333 I0.2500 J0.4330
G02 X4.0000 Y26.0000 Z-5.5000 I0.2500 J-0.4330
G02 X3.2500 Y25.5670 Z-5.6667 I-0.5000 J0.0000
G02 Y26.4330 Z-5.8333 I0.2500 J0.4330
G02 X4.0000 Y26.0000 Z-6.0000 I0.2500 J-0.4330
G02 X3.2500 Y25.5670 I-0.5000 J0.0000
G02 Y26.4330 I0.2500 J0.4330
G02 X4.0000 Y26.0000 I0.2500 J-0.4330
G02 X3.5000 Z-5.5000 I-0.2500 J0.0000
G00 Z5.0000
G00 X0.0000 Y0.0000

M05
M30
