(Projekt holder)
(Erstellt mit Estlcam Version 8 Build 8,204)
(Laufzeit ca. 00:01:19 Stunden)

(Benoetigte Werkzeuge:)
(Schaftfraeser)

G17 							(XY-Ebene)
G54 							(lokales KOS)
G21 							(metrische Einheiten)
G64 P 0.01 						(experimentell, geht auch ohne; maximale Wegabweichungstoleranz 0,01mm)

G90                             (Absolutmodus, nicht inkrementell)
G00 X-1.1106 Y29.8379 Z50.0000  (5cm über Werkstück positionieren)
M03 S18000                      (Spindel starten)
M00                             (Warte auf Drehzahl)

(Nr. 1: Teil 1)
G00 X-1.1106 Y29.8379 Z5.0000
G00 Z0.5000
G01 Z-4.0000 F500
G03 X-2.9257 Y26.4805 I3.0591 J-3.8232
G01 X-2.9446 Y26.1781
G01 X-2.9464 Y18.1635
G01 X-2.9480 Y11.1635
G01 X-2.9500 Y2.0000
G01 X-2.9300 Y1.5808
G01 X-2.8975 Y1.2877
G03 X-0.6674 Y-2.1668 I4.8986 J0.7153
G03 X0.9293 Y-2.8319 I2.6896 J4.2083
G03 X2.9239 Y-2.9296 I1.3697 J7.5510
G03 X5.8519 Y-1.6368 I-0.4186 J4.9104
G03 X7.4328 Y1.5983 I-3.3294 J3.6307
G01 X7.4497 Y2.0555
G01 X7.4498 Y11.0573
G01 X7.4499 Y18.0573
G01 X7.4500 Y26.0000
G01 X7.4300 Y26.4192
G01 X7.3975 Y26.7123
G03 X5.4261 Y29.9882 I-4.8782 J-0.7044
G03 X3.8563 Y30.7583 I-2.8777 J-3.8813
G03 X1.8019 Y30.9434 I-1.5543 J-5.7578
G03 X-1.1106 Y29.8379 I0.1716 J-4.8413
G01 Z-8.0000
G03 X-2.9257 Y26.4805 I3.0591 J-3.8232
G01 X-2.9446 Y26.1781
G01 X-2.9464 Y18.1635
G01 X-2.9480 Y11.1635
G01 X-2.9500 Y2.0000
G01 X-2.9300 Y1.5808
G01 X-2.8975 Y1.2877
G03 X-0.6674 Y-2.1668 I4.8986 J0.7153
G03 X0.9293 Y-2.8319 I2.6896 J4.2083
G03 X2.9239 Y-2.9296 I1.3697 J7.5510
G03 X5.8519 Y-1.6368 I-0.4186 J4.9104
G03 X7.4328 Y1.5983 I-3.3294 J3.6307
G01 X7.4497 Y2.0555
G01 X7.4498 Y11.0573
G01 X7.4499 Y18.0573
G01 X7.4500 Y26.0000
G01 X7.4300 Y26.4192
G01 X7.3975 Y26.7123
G03 X5.4261 Y29.9882 I-4.8782 J-0.7044
G03 X3.8563 Y30.7583 I-2.8777 J-3.8813
G03 X1.8019 Y30.9434 I-1.5543 J-5.7578
G03 X-1.1106 Y29.8379 I0.1716 J-4.8413
G01 Z-12.0000
G03 X-2.9257 Y26.4805 I3.0591 J-3.8232
G01 X-2.9446 Y26.1781
G01 X-2.9464 Y18.1635
G01 X-2.9480 Y11.1635
G01 X-2.9500 Y2.0000
G01 X-2.9300 Y1.5808
G01 X-2.8975 Y1.2877
G03 X-0.6674 Y-2.1668 I4.8986 J0.7153
G03 X0.9293 Y-2.8319 I2.6896 J4.2083
G03 X2.9239 Y-2.9296 I1.3697 J7.5510
G03 X5.8519 Y-1.6368 I-0.4186 J4.9104
G03 X7.4328 Y1.5983 I-3.3294 J3.6307
G01 X7.4497 Y2.0555
G01 X7.4498 Y11.0573
G01 X7.4499 Y18.0573
G01 X7.4500 Y26.0000
G01 X7.4300 Y26.4192
G01 X7.3975 Y26.7123
G03 X5.4261 Y29.9882 I-4.8782 J-0.7044
G03 X3.8563 Y30.7583 I-2.8777 J-3.8813
G03 X1.8019 Y30.9434 I-1.5543 J-5.7578
G03 X-1.1106 Y29.8379 I0.1716 J-4.8413
G01 Z-16.0000
G03 X-2.9257 Y26.4805 I3.0591 J-3.8232
G01 X-2.9446 Y26.1781
G01 X-2.9464 Y18.1635
G01 X-2.9480 Y11.1635
G01 X-2.9500 Y2.0000
G01 X-2.9300 Y1.5808
G01 X-2.8975 Y1.2877
G03 X-0.6674 Y-2.1668 I4.8986 J0.7153
G03 X0.9293 Y-2.8319 I2.6896 J4.2083
G03 X2.9239 Y-2.9296 I1.3697 J7.5510
G03 X5.8519 Y-1.6368 I-0.4186 J4.9104
G03 X7.4328 Y1.5983 I-3.3294 J3.6307
G01 X7.4497 Y2.0555
G01 X7.4498 Y11.0573
G01 X7.4499 Y18.0573
G01 X7.4500 Y26.0000
G01 X7.4300 Y26.4192
G01 X7.3975 Y26.7123
G03 X5.4261 Y29.9882 I-4.8782 J-0.7044
G03 X3.8563 Y30.7583 I-2.8777 J-3.8813
G03 X1.8019 Y30.9434 I-1.5543 J-5.7578
G03 X-1.1106 Y29.8379 I0.1716 J-4.8413
G01 Z-20.0000
G03 X-2.9257 Y26.4805 I3.0591 J-3.8232
G01 X-2.9446 Y26.1781
G01 X-2.9464 Y18.1635
G01 X-2.9480 Y11.1635
G01 X-2.9500 Y2.0000
G01 X-2.9300 Y1.5808
G01 X-2.8975 Y1.2877
G03 X-0.6674 Y-2.1668 I4.8986 J0.7153
G03 X0.9293 Y-2.8319 I2.6896 J4.2083
G03 X2.9239 Y-2.9296 I1.3697 J7.5510
G03 X5.8519 Y-1.6368 I-0.4186 J4.9104
G03 X7.4328 Y1.5983 I-3.3294 J3.6307
G01 X7.4497 Y2.0555
G01 X7.4498 Y11.0573
G01 X7.4499 Y18.0573
G01 X7.4500 Y26.0000
G01 X7.4300 Y26.4192
G01 X7.3975 Y26.7123
G03 X5.4261 Y29.9882 I-4.8782 J-0.7044
G03 X3.8563 Y30.7583 I-2.8777 J-3.8813
G03 X1.8019 Y30.9434 I-1.5543 J-5.7578
G03 X-1.1106 Y29.8379 I0.1716 J-4.8413
G01 Z-24.0000
G03 X-2.9257 Y26.4805 I3.0591 J-3.8232
G01 X-2.9446 Y26.1781
G01 X-2.9464 Y18.1635
G01 X-2.9480 Y11.1635
G01 X-2.9500 Y2.0000
G01 X-2.9300 Y1.5808
G01 X-2.8975 Y1.2877
G03 X-0.6674 Y-2.1668 I4.8986 J0.7153
G03 X0.9293 Y-2.8319 I2.6896 J4.2083
G03 X2.9239 Y-2.9296 I1.3697 J7.5510
G03 X5.8519 Y-1.6368 I-0.4186 J4.9104
G03 X7.4328 Y1.5983 I-3.3294 J3.6307
G01 X7.4497 Y2.0555
G01 X7.4498 Y11.0573
G01 X7.4499 Y18.0573
G01 X7.4500 Y26.0000
G01 X7.4300 Y26.4192
G01 X7.3975 Y26.7123
G03 X5.4261 Y29.9882 I-4.8782 J-0.7044
G03 X3.8563 Y30.7583 I-2.8777 J-3.8813
G03 X1.8019 Y30.9434 I-1.5543 J-5.7578
G03 X-1.1106 Y29.8379 I0.1716 J-4.8413
G01 Z-27.0000
G03 X-2.9257 Y26.4805 I3.0591 J-3.8232
G01 X-2.9446 Y26.1781
G01 X-2.9464 Y18.1635
G00 Z-25.0000
G01 X-2.9480 Y11.1635
G01 Z-27.0000
G01 X-2.9500 Y2.0000
G01 X-2.9300 Y1.5808
G01 X-2.8975 Y1.2877
G03 X-0.6674 Y-2.1668 I4.8986 J0.7153
G00 Z-25.0000
G03 X0.9293 Y-2.8319 I2.6896 J4.2083
G03 X2.9239 Y-2.9296 I1.3697 J7.5510
G03 X5.8519 Y-1.6368 I-0.4186 J4.9104
G01 Z-27.0000
G03 X7.4328 Y1.5983 I-3.3294 J3.6307
G01 X7.4497 Y2.0555
G01 X7.4498 Y11.0573
G00 Z-25.0000
G01 X7.4499 Y18.0573
G01 Z-27.0000
G01 X7.4500 Y26.0000
G01 X7.4300 Y26.4192
G01 X7.3975 Y26.7123
G03 X5.4261 Y29.9882 I-4.8782 J-0.7044
G00 Z-25.0000
G03 X3.8563 Y30.7583 I-2.8777 J-3.8813
G03 X1.8019 Y30.9434 I-1.5543 J-5.7578
G03 X-1.1106 Y29.8379 I0.1716 J-4.8413
G00 Z5.0000
G00 X0.0000 Y0.0000

G90 							(Absolutmodus, nicht inkrementell)
G1 G53 z-5 f1000 				(im Referenz-KOS nach oben fahren)
M05
M30
