(Projekt lid)
(Erstellt mit Estlcam Version 8 Build 8,204)
(Laufzeit ca. 00:00:46 Stunden)

(Benoetigte Werkzeuge:)
(Fraeser Diamantverzahnt 2,0 Sperrholz)

G17 							(XY-Ebene)
G54 							(lokales KOS)
G21 							(metrische Einheiten)
G64 P 0.01 						(experimentell, geht auch ohne; maximale Wegabweichungstoleranz 0,01mm)

G90                             (Absolutmodus, nicht inkrementell)
G00 X3.0001 Y31.5051 Z50.0000   (5cm über Werkstück positionieren)
M03 S24000                      (Spindel starten)
M00                             (Warte auf Drehzahl)


(Nr. 1: Ausschnitt 1)
G00 X3.0001 Y31.5051 Z0.5000
G01 Z-1.5000 F400 S24000
G02 X2.5025 Y32.0028 I0.0000 J0.4977 F700
G02 X3.0001 Y32.5004 I0.4977 J0.0000
G02 X3.4978 Y32.0028 I0.0000 J-0.4977
G02 X3.0001 Y31.5051 I-0.4977 J0.0000
G00 Z5.0000


(Nr. 2: Ausschnitt 2)
G00 X25.0035 Y31.5022 Z5.0000
G00 Z0.5000
G01 Z-1.5000 F400
G02 X24.5072 Y31.9985 I0.0000 J0.4963 F700
G02 X25.0035 Y32.4948 I0.4963 J0.0000
G02 X25.4998 Y31.9985 I0.0000 J-0.4963
G02 X25.0035 Y31.5022 I-0.4963 J0.0000
G00 Z5.0000


(Nr. 3: Ausschnitt 3)
G00 X77.0041 Y31.5030 Z5.0000
G00 Z0.5000
G01 Z-1.5000 F400
G02 X76.5073 Y31.9998 I0.0000 J0.4968 F700
G02 X77.0041 Y32.4966 I0.4968 J0.0000
G02 X77.5008 Y31.9998 I0.0000 J-0.4968
G02 X77.0041 Y31.5030 I-0.4968 J0.0000
G00 Z5.0000


(Nr. 4: Ausschnitt 4)
G00 X77.0028 Y3.4958 Z5.0000
G00 Z0.5000
G01 Z-1.5000 F400
G02 X77.0185 Y2.5014 I-0.0006 J-0.4973 F700
G02 X76.5046 Y2.9404 I-0.0185 J0.4986
G02 X77.0028 Y3.4958 I0.4897 J0.0618
G00 Z5.0000


(Nr. 5: Ausschnitt 5)
G00 X24.9971 Y2.5036 Z5.0000
G00 Z0.5000
G01 Z-1.5000 F400
G02 X24.4997 Y3.0010 I0.0000 J0.4974 F700
G02 X24.9971 Y3.4984 I0.4974 J0.0000
G02 X25.4945 Y3.0010 I0.0000 J-0.4974
G02 X24.9971 Y2.5036 I-0.4974 J0.0000
G00 Z5.0000


(Nr. 6: Ausschnitt 6)
G00 X2.9964 Y2.5045 Z5.0000
G00 Z0.5000
G01 Z-1.5000 F400
G02 X2.5001 Y3.0008 I0.0000 J0.4963 F700
G02 X2.9964 Y3.4971 I0.4963 J0.0000
G02 X3.4927 Y3.0008 I0.0000 J-0.4963
G02 X2.9964 Y2.5045 I-0.4963 J0.0000
G00 Z5.0000


(Nr. 7: Teil 1)
G00 X2.8282 Y-1.0000 Z5.0000
G00 Z0.5000
G01 Z-3.5000 F400
G01 X80.0000 F700
G01 X80.2955 Y-0.9553
G01 X80.4794 Y-0.8776
G03 X81.0000 Y0.0200 I-0.4799 J0.8781
G01 Y35.0000
G03 X79.9800 Y36.0000 I-1.0003 J-0.0001
G01 X0.0000
G01 X-0.2955 Y35.9553
G01 X-0.4794 Y35.8776
G03 X-1.0000 Y34.9800 I0.4799 J-0.8781
G01 Y0.0000
G03 X-0.2675 Y-0.9636 I1.0000 J0.0000
G01 X0.0200 Y-1.0000
G01 X2.8282
G00 Z5.0000
G00 X0.0000 Y0.0000


G90 							(Absolutmodus, nicht inkrementell)
G1 G53 z-5 f1000 				(im Referenz-KOS nach oben fahren)
M5
M30
