(Projekt top)
(Erstellt mit Estlcam Version 10 Build 10,044)
(Laufzeit ca. 00:00:46 Stunden)

(Benoetigte Werkzeuge:)
(Schaftfraeser 6mm)

G17 							(XY-Ebene)
G54 							(lokales KOS)
G21 		
G90 							(Absolutmodus, nicht inkrementell)

G1 G53 z-5 f1000 				(im Referenz-KOS nach oben fahren)
M03 S19000	(Spindel starten)
M00 (Warte bis Drehzahl erreicht)
G00 Z5.0000



(Nr. 1: Ausschnitt 1)
G00 X20.2000 Y17.5000
G00 Z0.5000
G02 X16.1500 Y15.1617 Z0.3333 I-2.7000 J0.0000 F900
G02 Y19.8383 Z0.1667 I1.3500 J2.3383
G02 X20.2000 Y17.5000 Z0.0000 I1.3500 J-2.3383
G02 X16.1500 Y15.1617 I-2.7000 J0.0000
G02 Y19.8383 I1.3500 J2.3383
G02 X20.2000 Y17.5000 I1.3500 J-2.3383
G02 X16.1500 Y15.1617 Z-1.3333 I-2.7000 J0.0000
G02 Y19.8383 Z-2.6667 I1.3500 J2.3383
G02 X20.2000 Y17.5000 Z-4.0000 I1.3500 J-2.3383
G02 X16.1500 Y15.1617 I-2.7000 J0.0000
G02 Y19.8383 I1.3500 J2.3383
G02 X20.2000 Y17.5000 I1.3500 J-2.3383
G02 X20.3063 Y16.3376 I-2.6408 J-0.8275 F1500
G02 X19.8865 Y15.1135 I-3.0887 J0.3752
G02 X18.9207 Y14.0701 I-2.9643 J1.7750
G02 X17.5000 Y13.4500 I-2.1978 J3.0978
G02 X15.8210 Y13.4465 I-0.8480 J4.0531
G02 X14.1589 Y14.1589 I0.8989 J4.3920
G02 X12.8806 Y15.5866 I2.8764 J3.8616
G02 X12.5000 Y17.5000 I4.6194 J1.9134
G02 X12.8806 Y19.4134 I5.0000 J0.0000
G02 X13.9645 Y21.0355 I4.6194 J-1.9134
G02 X15.5866 Y22.1194 I3.5355 J-3.5355
G02 X17.5000 Y22.5000 I1.9134 J-4.6194
G02 X19.4134 Y22.1194 I0.0000 J-5.0000
G02 X21.0355 Y21.0355 I-1.9134 J-4.6194
G02 X22.1194 Y19.4134 I-3.5355 J-3.5355
G02 X22.5000 Y17.5000 I-4.6194 J-1.9134
G02 X15.0000 Y13.1699 I-5.0000 J0.0000
G02 Y21.8301 I2.5000 J4.3301
G02 X22.5000 Y17.5000 I2.5000 J-4.3301
G02 X14.8000 I-3.8500 J0.0000
G02 X20.2000 I2.7000 J0.0000
G02 X16.1500 Y15.1617 Z-5.3333 I-2.7000 J0.0000 F900
G02 Y19.8383 Z-6.6667 I1.3500 J2.3383
G02 X20.2000 Y17.5000 Z-8.0000 I1.3500 J-2.3383
G02 X16.1500 Y15.1617 I-2.7000 J0.0000
G02 Y19.8383 I1.3500 J2.3383
G02 X20.2000 Y17.5000 I1.3500 J-2.3383
G02 X20.3063 Y16.3376 I-2.6408 J-0.8275 F1500
G02 X19.8865 Y15.1135 I-3.0887 J0.3752
G02 X18.9207 Y14.0701 I-2.9643 J1.7750
G02 X17.5000 Y13.4500 I-2.1978 J3.0978
G02 X15.8210 Y13.4465 I-0.8480 J4.0531
G02 X14.1589 Y14.1589 I0.8989 J4.3920
G02 X12.8806 Y15.5866 I2.8764 J3.8616
G02 X12.5000 Y17.5000 I4.6194 J1.9134
G02 X12.8806 Y19.4134 I5.0000 J0.0000
G02 X13.9645 Y21.0355 I4.6194 J-1.9134
G02 X15.5866 Y22.1194 I3.5355 J-3.5355
G02 X17.5000 Y22.5000 I1.9134 J-4.6194
G02 X19.4134 Y22.1194 I0.0000 J-5.0000
G02 X21.0355 Y21.0355 I-1.9134 J-4.6194
G02 X22.1194 Y19.4134 I-3.5355 J-3.5355
G02 X22.5000 Y17.5000 I-4.6194 J-1.9134
G02 X15.0000 Y13.1699 I-5.0000 J0.0000
G02 Y21.8301 I2.5000 J4.3301
G02 X22.5000 Y17.5000 I2.5000 J-4.3301
G02 X14.8000 I-3.8500 J0.0000
G02 X20.2000 I2.7000 J0.0000
G02 X16.1500 Y15.1617 Z-9.0000 I-2.7000 J0.0000 F900
G02 Y19.8383 Z-10.0000 I1.3500 J2.3383
G02 X20.2000 Y17.5000 Z-11.0000 I1.3500 J-2.3383
G02 X16.1500 Y15.1617 I-2.7000 J0.0000
G02 Y19.8383 I1.3500 J2.3383
G02 X20.2000 Y17.5000 I1.3500 J-2.3383
G02 X20.3063 Y16.3376 I-2.6408 J-0.8275 F1500
G02 X19.8865 Y15.1135 I-3.0887 J0.3752
G02 X18.9207 Y14.0701 I-2.9643 J1.7750
G02 X17.5000 Y13.4500 I-2.1978 J3.0978
G02 X15.8210 Y13.4465 I-0.8480 J4.0531
G02 X14.1589 Y14.1589 I0.8989 J4.3920
G02 X12.8806 Y15.5866 I2.8764 J3.8616
G02 X12.5000 Y17.5000 I4.6194 J1.9134
G02 X12.8806 Y19.4134 I5.0000 J0.0000
G02 X13.9645 Y21.0355 I4.6194 J-1.9134
G02 X15.5866 Y22.1194 I3.5355 J-3.5355
G02 X17.5000 Y22.5000 I1.9134 J-4.6194
G02 X19.4134 Y22.1194 I0.0000 J-5.0000
G02 X21.0355 Y21.0355 I-1.9134 J-4.6194
G02 X22.1194 Y19.4134 I-3.5355 J-3.5355
G02 X22.5000 Y17.5000 I-4.6194 J-1.9134
G02 X15.0000 Y13.1699 I-5.0000 J0.0000
G02 Y21.8301 I2.5000 J4.3301
G02 X22.5000 Y17.5000 I2.5000 J-4.3301
G02 X19.5000 Y14.5000 Z-10.5000 I-3.0000 J0.0000 F900
G00 Z5.0000

(Nr. 3: Ausschnitt 2)
G00 X20.2000 Y17.5000 Z5.0000
G00 Z-10.5000
G02 X16.1500 Y15.1617 Z-10.6667 I-2.7000 J0.0000 F900
G02 Y19.8383 Z-10.8333 I1.3500 J2.3383
G02 X20.2000 Y17.5000 Z-11.0000 I1.3500 J-2.3383
G02 X16.1500 Y15.1617 I-2.7000 J0.0000
G02 Y19.8383 I1.3500 J2.3383
G02 X20.2000 Y17.5000 I1.3500 J-2.3383
G02 X16.1500 Y15.1617 Z-12.3333 I-2.7000 J0.0000
G02 Y19.8383 Z-13.6667 I1.3500 J2.3383
G02 X20.2000 Y17.5000 Z-15.0000 I1.3500 J-2.3383
G02 X16.1500 Y15.1617 I-2.7000 J0.0000
G02 Y19.8383 I1.3500 J2.3383
G02 X20.2000 Y17.5000 I1.3500 J-2.3383
G02 X20.3063 Y16.3376 I-2.6408 J-0.8275 F1500
G02 X19.8865 Y15.1135 I-3.0887 J0.3752
G02 X18.9207 Y14.0701 I-2.9643 J1.7750
G02 X17.5000 Y13.5000 I-2.0941 J3.1632
G02 X15.9693 Y13.8045 I0.0000 J4.0000
G02 X14.6716 Y14.6716 I1.5307 J3.6955
G02 X13.8045 Y15.9693 I2.8284 J2.8284
G02 X13.5000 Y17.5000 I3.6955 J1.5307
G02 X13.8045 Y19.0307 I4.0000 J0.0000
G02 X14.6716 Y20.3284 I3.6955 J-1.5307
G02 X15.9693 Y21.1955 I2.8284 J-2.8284
G02 X17.5000 Y21.5000 I1.5307 J-3.6955
G02 X19.0307 Y21.1955 I0.0000 J-4.0000
G02 X20.3284 Y20.3284 I-1.5307 J-3.6955
G02 X21.1955 Y19.0307 I-2.8284 J-2.8284
G02 X21.5000 Y17.5000 I-3.6955 J-1.5307
G02 X15.5000 Y14.0359 I-4.0000 J0.0000
G02 Y20.9641 I2.0000 J3.4641
G02 X21.5000 Y17.5000 I2.0000 J-3.4641
G02 X14.8000 I-3.3500 J0.0000
G02 X20.2000 I2.7000 J0.0000
G02 X16.1500 Y15.1617 Z-16.3333 I-2.7000 J0.0000 F900
G02 Y19.8383 Z-17.6667 I1.3500 J2.3383
G02 X20.2000 Y17.5000 Z-19.0000 I1.3500 J-2.3383
G02 X16.1500 Y15.1617 I-2.7000 J0.0000
G02 Y19.8383 I1.3500 J2.3383
G02 X20.2000 Y17.5000 I1.3500 J-2.3383
G02 X20.3063 Y16.3376 I-2.6408 J-0.8275 F1500
G02 X19.8865 Y15.1135 I-3.0887 J0.3752
G02 X18.9207 Y14.0701 I-2.9643 J1.7750
G02 X17.5000 Y13.5000 I-2.0941 J3.1632
G02 X15.9693 Y13.8045 I0.0000 J4.0000
G02 X14.6716 Y14.6716 I1.5307 J3.6955
G02 X13.8045 Y15.9693 I2.8284 J2.8284
G02 X13.5000 Y17.5000 I3.6955 J1.5307
G02 X13.8045 Y19.0307 I4.0000 J0.0000
G02 X14.6716 Y20.3284 I3.6955 J-1.5307
G02 X15.9693 Y21.1955 I2.8284 J-2.8284
G02 X17.5000 Y21.5000 I1.5307 J-3.6955
G02 X19.0307 Y21.1955 I0.0000 J-4.0000
G02 X20.3284 Y20.3284 I-1.5307 J-3.6955
G02 X21.1955 Y19.0307 I-2.8284 J-2.8284
G02 X21.5000 Y17.5000 I-3.6955 J-1.5307
G02 X15.5000 Y14.0359 I-4.0000 J0.0000
G02 Y20.9641 I2.0000 J3.4641
G02 X21.5000 Y17.5000 I2.0000 J-3.4641
G02 X14.8000 I-3.3500 J0.0000
G02 X20.2000 I2.7000 J0.0000
G02 X16.1500 Y15.1617 Z-20.3333 I-2.7000 J0.0000 F900
G02 Y19.8383 Z-21.6667 I1.3500 J2.3383
G02 X20.2000 Y17.5000 Z-23.0000 I1.3500 J-2.3383
G02 X16.1500 Y15.1617 I-2.7000 J0.0000
G02 Y19.8383 I1.3500 J2.3383
G02 X20.2000 Y17.5000 I1.3500 J-2.3383
G02 X20.3063 Y16.3376 I-2.6408 J-0.8275 F1500
G02 X19.8865 Y15.1135 I-3.0887 J0.3752
G02 X18.9207 Y14.0701 I-2.9643 J1.7750
G02 X17.5000 Y13.5000 I-2.0941 J3.1632
G02 X15.9693 Y13.8045 I0.0000 J4.0000
G02 X14.6716 Y14.6716 I1.5307 J3.6955
G02 X13.8045 Y15.9693 I2.8284 J2.8284
G02 X13.5000 Y17.5000 I3.6955 J1.5307
G02 X13.8045 Y19.0307 I4.0000 J0.0000
G02 X14.6716 Y20.3284 I3.6955 J-1.5307
G02 X15.9693 Y21.1955 I2.8284 J-2.8284
G02 X17.5000 Y21.5000 I1.5307 J-3.6955
G02 X19.0307 Y21.1955 I0.0000 J-4.0000
G02 X20.3284 Y20.3284 I-1.5307 J-3.6955
G02 X21.1955 Y19.0307 I-2.8284 J-2.8284
G02 X21.5000 Y17.5000 I-3.6955 J-1.5307
G02 X15.5000 Y14.0359 I-4.0000 J0.0000
G02 Y20.9641 I2.0000 J3.4641
G02 X21.5000 Y17.5000 I2.0000 J-3.4641
G02 X14.8000 I-3.3500 J0.0000
G02 X20.2000 I2.7000 J0.0000
G02 X16.1500 Y15.1617 Z-24.0000 I-2.7000 J0.0000 F900
G02 Y19.8383 Z-25.0000 I1.3500 J2.3383
G02 X20.2000 Y17.5000 Z-26.0000 I1.3500 J-2.3383
G02 X16.1500 Y15.1617 I-2.7000 J0.0000
G02 Y19.8383 I1.3500 J2.3383
G02 X20.2000 Y17.5000 I1.3500 J-2.3383
G02 X20.3063 Y16.3376 I-2.6408 J-0.8275 F1500
G02 X19.8865 Y15.1135 I-3.0887 J0.3752
G02 X18.9207 Y14.0701 I-2.9643 J1.7750
G02 X17.5000 Y13.5000 I-2.0941 J3.1632
G02 X15.9693 Y13.8045 I0.0000 J4.0000
G02 X14.6716 Y14.6716 I1.5307 J3.6955
G02 X13.8045 Y15.9693 I2.8284 J2.8284
G02 X13.5000 Y17.5000 I3.6955 J1.5307
G02 X13.8045 Y19.0307 I4.0000 J0.0000
G02 X14.6716 Y20.3284 I3.6955 J-1.5307
G02 X15.9693 Y21.1955 I2.8284 J-2.8284
G02 X17.5000 Y21.5000 I1.5307 J-3.6955
G02 X19.0307 Y21.1955 I0.0000 J-4.0000
G02 X20.3284 Y20.3284 I-1.5307 J-3.6955
G02 X21.1955 Y19.0307 I-2.8284 J-2.8284
G02 X21.5000 Y17.5000 I-3.6955 J-1.5307
G02 X15.5000 Y14.0359 I-4.0000 J0.0000
G02 Y20.9641 I2.0000 J3.4641
G02 X21.5000 Y17.5000 I2.0000 J-3.4641
G02 X18.5000 Y14.5000 Z-25.5000 I-3.0000 J0.0000 F900
G00 Z5.0000
G00 X0.0000 Y0.0000

M05
M30
