(Projekt top)
(Erstellt mit Estlcam Version 10 Build 10,044)
(Laufzeit ca. 00:00:41 Stunden)

(Benoetigte Werkzeuge:)
(Schaftfraeser 6mm)

G17 (XY-Ebene)
G54 (lokales KOS)
G21            
G90 (Absolutmodus, nicht inkrementell)
M03 S19000
M00 (Warte bis Drehzahl erreicht)
G00 Z5.0000


(Nr. 1: Gravur 1)
G00 X0.0000 Y27.5000
G00 Z0.5000
G01 Z-2.0000 F900 S19000
G01 X35.0000 F1500
G00 Z5.0000


(Nr. 2: Ausschnitt 3)
G00 X31.4000 Y4.4500 Z5.0000
G00 Z0.5000
G01 Z-2.0000 F900
G01 X3.6000 F1500
G01 Y9.8500
G01 X31.4000
G01 Y15.2500
G01 X3.6000
G01 Y20.6500
G01 X31.4000
G01 Y26.0500
G01 X3.6000
G00 Z5.0000
G00 Z0.5000
G01 Z-2.0000 F900
G01 X3.0000 F1500
G01 Y27.5000
G01 X32.0000
G01 Y3.0000
G01 X32.8787 Y2.1213
G01 X32.0000 Y3.0000
G01 X3.0000
G01 X2.1213 Y2.1213
G01 X3.0000 Y3.0000
G01 Y26.0500
G01 X3.6000
G00 Z5.0000


(Nr. 3: Ausschnitt 8)
G00 X14.0313 Y14.8000 Z5.0000
G00 Z0.5000
G01 Z-4.0000 F900
G01 X20.9687 F1500
G01 Y20.2000
G01 X14.0313
G00 Z5.0000
G00 Z0.5000
G01 Z-4.0000 F900
G01 X13.5532 Y20.5625 F1500
G01 X13.6228 Y20.6543
G01 X13.8471 Y20.9116
G02 X20.9116 Y13.8471 I3.6529 J-3.4116
G02 X12.5134 Y17.1589 I-3.4116 J3.6529
G01 X12.5017 Y17.5000
G01 X12.5134 Y17.8411
G02 X13.5532 Y20.5625 I4.9520 J-0.3327
G01 X14.0313 Y20.2000
G00 Z5.0000
G00 Y14.8000
G00 Z-3.5000
G01 Z-8.0000 F900
G01 X20.9687 F1500
G01 Y20.2000
G01 X14.0313
G00 Z5.0000
G00 Z-3.5000
G01 Z-8.0000 F900
G01 X13.5532 Y20.5625 F1500
G01 X13.6228 Y20.6543
G01 X13.8471 Y20.9116
G02 X20.9116 Y13.8471 I3.6529 J-3.4116
G02 X12.5134 Y17.1589 I-3.4116 J3.6529
G01 X12.5017 Y17.5000
G01 X12.5134 Y17.8411
G02 X13.5532 Y20.5625 I4.9520 J-0.3327
G01 X14.0313 Y20.2000
G00 Z5.0000
G00 Y14.8000
G00 Z-7.5000
G01 Z-10.0000 F900
G01 X20.9687 F1500
G01 Y20.2000
G01 X14.0313
G00 Z5.0000
G00 Z-7.5000
G01 Z-10.0000 F900
G01 X13.5532 Y20.5625 F1500
G01 X13.6228 Y20.6543
G01 X13.8471 Y20.9116
G02 X20.9116 Y13.8471 I3.6529 J-3.4116
G02 X12.5134 Y17.1589 I-3.4116 J3.6529
G01 X12.5017 Y17.5000
G01 X12.5134 Y17.8411
G02 X13.5532 Y20.5625 I4.9520 J-0.3327
G01 X14.0313 Y20.2000
G00 Z5.0000


(Nr. 4: Ausschnitt 11)
G00 X20.2000 Y17.5000 Z5.0000
G00 Z-11.5000
G02 X16.1500 Y15.1617 Z-11.6667 I-2.7000 J0.0000 F900
G02 Y19.8383 Z-11.8333 I1.3500 J2.3383
G02 X20.2000 Y17.5000 Z-12.0000 I1.3500 J-2.3383
G02 X16.1500 Y15.1617 I-2.7000 J0.0000
G02 Y19.8383 I1.3500 J2.3383
G02 X20.2000 Y17.5000 I1.3500 J-2.3383
G02 X16.1500 Y15.1617 Z-12.6667 I-2.7000 J0.0000
G02 Y19.8383 Z-13.3333 I1.3500 J2.3383
G02 X20.2000 Y17.5000 Z-14.0000 I1.3500 J-2.3383
G02 X16.1500 Y15.1617 I-2.7000 J0.0000
G02 Y19.8383 I1.3500 J2.3383
G02 X20.2000 Y17.5000 I1.3500 J-2.3383
G02 X20.3063 Y16.3376 I-2.6408 J-0.8275 F1500
G02 X19.8865 Y15.1135 I-3.0887 J0.3752
G02 X18.9207 Y14.0701 I-2.9643 J1.7750
G02 X17.5000 Y13.5000 I-2.0941 J3.1632
G02 X15.9693 Y13.8045 I0.0000 J4.0000
G02 X14.6716 Y14.6716 I1.5307 J3.6955
G02 X13.8045 Y15.9693 I2.8284 J2.8284
G02 X13.5000 Y17.5000 I3.6955 J1.5307
G02 X13.8045 Y19.0307 I4.0000 J0.0000
G02 X14.6716 Y20.3284 I3.6955 J-1.5307
G02 X15.9693 Y21.1955 I2.8284 J-2.8284
G02 X17.5000 Y21.5000 I1.5307 J-3.6955
G02 X19.0307 Y21.1955 I0.0000 J-4.0000
G02 X20.3284 Y20.3284 I-1.5307 J-3.6955
G02 X21.1955 Y19.0307 I-2.8284 J-2.8284
G02 X21.5000 Y17.5000 I-3.6955 J-1.5307
G02 X15.5000 Y14.0359 I-4.0000 J0.0000
G02 Y20.9641 I2.0000 J3.4641
G02 X21.5000 Y17.5000 I2.0000 J-3.4641
G02 X18.5000 Y14.5000 Z-13.5000 I-3.0000 J0.0000 F900
G00 Z5.0000
G00 X0.0000 Y0.0000

M05
M30
